%
O5566
 
G40G69G17G80
G91G28G00Z0.0
 
(PostProcessor  : RoboDrill_31i_3Axes_RISC)
(Operation Name : FIN-1UM)
(          Type : Fixed-axis Surface Contouring)
(Template Type    : mill_contour)
(         Subtype : FIXED_CONTOUR)
(Tool Name        : BR2)
(     Type        : Milling Tool-5 Parameters)
(     Diameter    :   4.000)
(     Corner R    :   2.000)
(     Taper Angle :   0.000)
 
G49M06T03
M08
G90G54G00X0.0Y0.0M03S8000
G43Z104.9H003
G05P10000
 
X-29.4163Y-32.4031
Z5.1728
Z1.1728
G01Z-.2028F1500
X-29.4192Y-32.4002Z-.3284
X-29.4277Y-32.3917Z-.4535
X-29.4417Y-32.3777Z-.5775
X-29.4612Y-32.3581Z-.7001
X-29.4861Y-32.3332Z-.8207
X-29.5163Y-32.303Z-.9389
X-29.5517Y-32.2676Z-1.0541
X-29.5921Y-32.2272Z-1.166
X-29.6375Y-32.1818Z-1.274
X-29.6875Y-32.1318Z-1.3778
X-29.7421Y-32.0773Z-1.477
X-29.8009Y-32.0184Z-1.5711
X-29.8638Y-31.9555Z-1.6598
X-29.9306Y-31.8888Z-1.7428
X-30.0008Y-31.8185Z-1.8197
X-30.0744Y-31.7449Z-1.8901
X-30.1509Y-31.6684Z-1.9539
X-30.2301Y-31.5892Z-2.0108
X-30.3117Y-31.5076Z-2.0606
X-30.3954Y-31.424Z-2.103
X-30.4807Y-31.3386Z-2.1378
X-30.5674Y-31.2519Z-2.1651
X-30.6552Y-31.1641Z-2.1846
X-30.7437Y-31.0757Z-2.1962
X-30.8325Y-30.9869Z-2.2
X-30.978Y-30.8413Z-2.1999
X-30.9803Y-30.6978
X-30.6891Y-30.9889Z-2.2
X-30.5458Y-30.991Z-2.2001
X-30.9825Y-30.5543Z-2.1998
X-30.9848Y-30.4108
X-30.4025Y-30.9931Z-2.2002
X-30.2591Y-30.9951Z-2.2003
X-30.987Y-30.2672Z-2.1998
X-30.9893Y-30.1237
X-30.9679Y-30.1451
X-30.1193Y-30.9937Z-2.2003
X-30.1158Y-30.9972Z-2.2004
X-29.9725Y-30.9993
X-30.0487Y-30.923Z-2.2003
X-30.8972Y-30.0745Z-2.1999
X-30.9913Y-29.9805Z-2.1998
X-30.992Y-29.9107Z-2.1997
X-30.9922Y-29.8383
X-30.8266Y-30.0039Z-2.1999
X-29.9781Y-30.8524Z-2.2002
X-29.8287Y-31.0018Z-2.2005
X-29.6844Y-31.0048Z-2.2006
X-29.9074Y-30.7818Z-2.2002
X-30.756Y-29.9333Z-2.2
X-30.9919Y-29.6973Z-2.1996
X-30.9917Y-29.6577
X-30.9905Y-29.5575Z-2.1994
X-30.6853Y-29.8626Z-2.2
X-29.8368Y-30.7112Z-2.2002
X-29.54Y-31.008Z-2.2008
X-29.3956Y-31.0111Z-2.2011
X-29.7662Y-30.6405Z-2.2001
X-30.6147Y-29.792Z-2.2
X-30.9883Y-29.4184Z-2.1991
X-30.9863Y-29.2791Z-2.199
X-30.5441Y-29.7214Z-2.2
X-29.6956Y-30.5699Z-2.2001
X-29.2498Y-31.0156Z-2.2014
X-29.0987Y-31.0255Z-2.2017
X-29.6249Y-30.4993Z-2.2
X-30.4734Y-29.6507
X-30.9845Y-29.1397Z-2.1986
X-30.9836Y-29.0255Z-2.1955
X-30.9778Y-29.0051Z-2.1947
X-30.9045Y-29.0784Z-2.1977
X-30.8329Y-29.1501Z-2.1993
X-30.6895Y-29.2934Z-2.1998
X-30.4028Y-29.5801Z-2.2
X-29.5543Y-30.4286
X-29.2515Y-30.7314Z-2.2003
X-29.1001Y-30.8828Z-2.2009
X-28.9465Y-31.0364Z-2.2035
X-28.8941Y-31.0407Z-2.2059
X-28.8917Y-31.03Z-2.2058
X-28.8105Y-31.0312Z-2.2095
X-28.8964Y-30.9453Z-2.2043
X-28.9803Y-30.8614Z-2.2016
X-29.1481Y-30.6936Z-2.2003
X-29.4837Y-30.358Z-2.2
X-29.9079Y-29.9337
X-30.3322Y-29.5095
X-30.6499Y-29.1918Z-2.1998
X-30.8087Y-29.033Z-2.1975
X-30.8881Y-28.9535Z-2.1947
X-30.9695Y-28.8722Z-2.1894
X-30.9672Y-28.7332Z-2.1837
X-30.7893Y-28.9111Z-2.1954
X-30.6134Y-29.087Z-2.1989
X-30.2616Y-29.4388Z-2.2001
X-29.413Y-30.2874Z-2.2
X-29.0411Y-30.6593Z-2.2004
X-28.9481Y-30.7523Z-2.2016
X-28.8551Y-30.8453Z-2.2049
X-28.6671Y-31.0333Z-2.2161
X-28.5237Y-31.0354Z-2.2226
X-28.7299Y-30.8292Z-2.2094
X-28.832Y-30.7271Z-2.2043
X-28.9341Y-30.625Z-2.2015
X-29.3424Y-30.2167Z-2.2
X-30.1909Y-29.3682Z-2.2001
X-30.3839Y-29.1752Z-2.2
X-30.5769Y-28.9822Z-2.1978
X-30.6734Y-28.8857Z-2.1958
X-30.7699Y-28.7892Z-2.1905
X-30.9649Y-28.5942Z-2.178
X-30.9626Y-28.4552Z-2.1723
X-30.6455Y-28.7723Z-2.1921
X-30.5405Y-28.8774Z-2.1966
X-30.3304Y-29.0875Z-2.1994
X-30.1203Y-29.2976Z-2.2001
X-29.2718Y-30.1461Z-2.1999
X-29.0596Y-30.3582Z-2.2001
X-28.8475Y-30.5704Z-2.2026
X-28.7414Y-30.6764Z-2.2056
X-28.6354Y-30.7825Z-2.2124
X-28.4232Y-30.9946Z-2.2262
X-28.3804Y-31.0375Z-2.2292
X-28.237Y-31.0396Z-2.2358
X-28.3526Y-30.924Z-2.2277
X-28.5647Y-30.7119Z-2.2138
X-28.6708Y-30.6058Z-2.2066
X-28.7769Y-30.4997Z-2.2034
X-28.989Y-30.2876Z-2.2003
X-29.2011Y-30.0755Z-2.1999
X-30.0497Y-29.2269Z-2.2001
X-30.2618Y-29.0148Z-2.1991
X-30.4739Y-28.8027Z-2.1953
X-30.6861Y-28.5905Z-2.1834
X-30.8982Y-28.3784Z-2.1704
X-30.96Y-28.3166Z-2.1664
X-30.9589Y-28.2668Z-2.1639
X-30.9566Y-28.1788Z-2.1591
X-30.8276Y-28.3078Z-2.1683
X-30.6154Y-28.5199Z-2.1818
X-30.4033Y-28.732Z-2.1946
X-30.1912Y-28.9442Z-2.1988
X-29.979Y-29.1563Z-2.2001
X-29.1305Y-30.0048Z-2.1999
X-28.9184Y-30.217Z-2.2008
X-28.7062Y-30.4291Z-2.2043
X-28.6002Y-30.5352Z-2.2083
X-28.4941Y-30.6412Z-2.2152
X-28.282Y-30.8534Z-2.2294
X-28.0935Y-31.0419Z-2.243
X-27.9498Y-31.0443Z-2.2506
X-28.2113Y-30.7827Z-2.2308
X-28.4235Y-30.5706Z-2.2166
X-28.5295Y-30.4645Z-2.21
X-28.6356Y-30.3585Z-2.2054
X-28.8477Y-30.1463Z-2.2012
X-29.0599Y-29.9342Z-2.1995
X-29.9084Y-29.0857Z-2.2006
X-30.1205Y-28.8735Z-2.1986
X-30.3327Y-28.6614Z-2.1933
X-30.7569Y-28.2372Z-2.1665
X-30.953Y-28.0411Z-2.1503
X-30.9494Y-27.9034Z-2.1406
X-30.6863Y-28.1665Z-2.164
X-30.4742Y-28.3787Z-2.1786
X-30.262Y-28.5908Z-2.1917
X-30.0499Y-28.8029Z-2.1982
X-29.8378Y-29.015Z-2.201
X-28.9892Y-29.8636Z-2.1992
X-28.7771Y-30.0757Z-2.2018
X-28.565Y-30.2878Z-2.2065
X-28.3528Y-30.5Z-2.2183
X-28.1407Y-30.7121Z-2.2325
X-27.8057Y-31.0471Z-2.2589
X-27.7307Y-31.0487Z-2.2638
X-27.6614Y-31.0501Z-2.2686
X-27.8668Y-30.8448Z-2.25
X-28.0701Y-30.6415Z-2.2342
X-28.2822Y-30.4293Z-2.2199
X-28.4943Y-30.2172Z-2.2079
X-28.7065Y-30.0051Z-2.2022
X-28.9186Y-29.7929Z-2.1991
X-29.7671Y-28.9444Z-2.2011
X-29.9793Y-28.7323Z-2.1977
X-30.0853Y-28.6262Z-2.1949
X-30.1914Y-28.5202Z-2.19
X-30.4035Y-28.308Z-2.1769
X-30.6157Y-28.0959Z-2.1612
X-30.9458Y-27.7658Z-2.1302
X-30.9426Y-27.6277Z-2.1183
X-30.7428Y-27.8275Z-2.14
X-30.545Y-28.0253Z-2.1583
X-30.3329Y-28.2374Z-2.1753
X-30.1208Y-28.4495Z-2.1882
X-29.9086Y-28.6617Z-2.197
X-29.6965Y-28.8738Z-2.2009
X-28.848Y-29.7223Z-2.1993
X-28.6358Y-29.9344Z-2.2026
X-28.4237Y-30.1466Z-2.2095
X-28.2116Y-30.3587Z-2.2215
X-27.9994Y-30.5708Z-2.2361
X-27.7594Y-30.8109Z-2.2557
X-27.5173Y-31.053Z-2.2793
X-27.3733Y-31.0557Z-2.2909
X-27.6521Y-30.7769Z-2.2619
X-27.9288Y-30.5002Z-2.2383
X-28.141Y-30.2881Z-2.2232
X-28.3531Y-30.0759Z-2.2111
X-28.5652Y-29.8638Z-2.2034
X-28.7773Y-29.6517Z-2.1998
X-29.2016Y-29.2274Z-2.2002
X-29.6259Y-28.8032
X-29.838Y-28.591Z-2.1961
X-29.9441Y-28.485Z-2.1925
X-30.0501Y-28.3789Z-2.1868
X-30.2623Y-28.1668Z-2.1733
X-30.4744Y-27.9546Z-2.1556
X-30.706Y-27.723Z-2.133
X-30.9395Y-27.4895Z-2.1056
X-30.9367Y-27.3511Z-2.0919
X-30.6692Y-27.6185Z-2.1249
X-30.5365Y-27.7513Z-2.1399
X-30.4038Y-27.884Z-2.1526
X-30.1916Y-28.0961Z-2.171
X-29.9795Y-28.3083Z-2.1857
X-29.7674Y-28.5204Z-2.1952
X-29.5552Y-28.7325Z-2.1996
X-29.131Y-29.1568Z-2.2001
X-28.7067Y-29.5811Z-2.2005
X-28.4946Y-29.7932Z-2.2043
X-28.2825Y-30.0053Z-2.2123
X-28.0703Y-30.2174Z-2.2248
X-27.8582Y-30.4296Z-2.2405
X-27.5448Y-30.743Z-2.2685
X-27.3881Y-30.8997Z-2.285
X-27.2294Y-31.0584Z-2.3035
X-27.0856Y-31.0609Z-2.3171
X-27.2626Y-30.8839Z-2.2952
X-27.4376Y-30.7089Z-2.2757
X-27.7876Y-30.359Z-2.2429
X-27.9997Y-30.1468Z-2.2266
X-28.2118Y-29.9347Z-2.2135
X-28.424Y-29.7226Z-2.2052
X-28.6361Y-29.5104Z-2.2012
X-29.4846Y-28.6619Z-2.1989
X-29.6967Y-28.4498Z-2.1943
X-29.9089Y-28.2376Z-2.1844
X-30.121Y-28.0255Z-2.1687
X-30.3331Y-27.8134Z-2.1498
X-30.6327Y-27.5138Z-2.1166
X-30.9342Y-27.2123Z-2.0773
X-30.9327Y-27.1287Z-2.068
X-30.9317Y-27.0735Z-2.0616
X-30.5961Y-27.4091Z-2.108
X-30.2625Y-27.7427Z-2.1468
X-30.0504Y-27.9549Z-2.1665
X-29.8382Y-28.167Z-2.1822
X-29.6261Y-28.3791Z-2.1926
X-29.414Y-28.5913Z-2.1977
X-28.9897Y-29.0155Z-2.2002
X-28.5655Y-29.4398Z-2.2023
X-28.3533Y-29.6519Z-2.2066
X-28.1412Y-29.8641Z-2.2151
X-27.9291Y-30.0762Z-2.2283
X-27.7169Y-30.2883Z-2.2452
X-27.5237Y-30.4815Z-2.2631
X-27.3305Y-30.6747Z-2.2833
X-27.1373Y-30.8679Z-2.306
X-26.9421Y-31.0632Z-2.3314
X-26.8758Y-31.0642Z-2.3383
X-26.7987Y-31.0653Z-2.3467
X-27.0121Y-30.8519Z-2.3174
X-27.2235Y-30.6405Z-2.2913
X-27.4349Y-30.4291Z-2.2682
X-27.6463Y-30.2177Z-2.2478
X-27.8584Y-30.0056Z-2.2301
X-28.0706Y-29.7934Z-2.2172
X-28.2827Y-29.5813Z-2.2084
X-28.4948Y-29.3692Z-2.2035
X-28.9191Y-28.9449Z-2.2001
X-29.3434Y-28.5206Z-2.1964
X-29.5555Y-28.3085Z-2.1906
X-29.7676Y-28.0964Z-2.18
X-29.9797Y-27.8842Z-2.1641
X-30.1919Y-27.6721Z-2.1433
X-30.3757Y-27.4883Z-2.122
X-30.5596Y-27.3044Z-2.0988
X-30.7434Y-27.1206Z-2.0731
X-30.9292Y-26.9348Z-2.0449
X-30.9281Y-26.8758Z-2.0375
X-30.9268Y-26.796Z-2.0271
X-30.7239Y-26.9988Z-2.0596
X-30.523Y-27.1997Z-2.089
X-30.3221Y-27.4006Z-2.1157
X-30.1212Y-27.6015Z-2.1396
X-29.9091Y-27.8136Z-2.1618
X-29.697Y-28.0257Z-2.1777
X-29.4849Y-28.2379Z-2.1886
X-29.2727Y-28.45Z-2.195
X-28.8485Y-28.8743Z-2.1999
X-28.4242Y-29.2985Z-2.2047
X-28.2121Y-29.5107Z-2.2102
X-27.9999Y-29.7228Z-2.2193
X-27.7878Y-29.9349Z-2.2325
X-27.5757Y-30.1471Z-2.2504
X-27.3635Y-30.3592Z-2.2717
X-27.1514Y-30.5713Z-2.2957
X-26.9393Y-30.7835Z-2.3224
X-26.7271Y-30.9956Z-2.352
X-26.6553Y-31.0675Z-2.3628
X-26.5119Y-31.0696Z-2.3798
X-26.6565Y-30.925Z-2.3575
X-26.8686Y-30.7128Z-2.3273
X-27.0808Y-30.5007Z-2.2998
X-27.2929Y-30.2886Z-2.2753
X-27.505Y-30.0764Z-2.2531
X-27.7172Y-29.8643Z-2.2349
X-27.9293Y-29.6522Z-2.2215
X-28.1414Y-29.44Z-2.212
X-28.3536Y-29.2279Z-2.2063
X-28.7778Y-28.8036Z-2.2001
X-29.2021Y-28.3794Z-2.1935
X-29.4142Y-28.1672Z-2.1865
X-29.6264Y-27.9551Z-2.175
X-29.8385Y-27.743Z-2.1583
X-30.0506Y-27.5308Z-2.1361
X-30.2627Y-27.3187Z-2.1098
X-30.4749Y-27.1066Z-2.0805
X-30.687Y-26.8944Z-2.0482
X-30.8991Y-26.6823Z-2.0127
X-30.9244Y-26.6571Z-2.0083
X-30.9238Y-26.6229Z-2.0036
X-30.9223Y-26.5179Z-1.9885
X-30.8285Y-26.6117Z-2.0055
X-30.6164Y-26.8238Z-2.0417
X-30.4042Y-27.0359Z-2.075
X-30.1921Y-27.2481Z-2.1051
X-29.98Y-27.4602Z-2.1323
X-29.7679Y-27.6723Z-2.1547
X-29.5557Y-27.8845Z-2.1718
X-29.3436Y-28.0966Z-2.1838
X-29.1315Y-28.3087Z-2.1917
X-28.7072Y-28.733Z-2.1999
X-28.2829Y-29.1573Z-2.2077
X-28.0708Y-29.3694Z-2.2143
X-27.8587Y-29.5815Z-2.2242
X-27.6465Y-29.7937Z-2.2379
X-27.4344Y-30.0058Z-2.2561
X-27.2223Y-30.2179Z-2.2788
X-27.0101Y-30.4301Z-2.3043
X-26.798Y-30.6422Z-2.3323
X-26.5859Y-30.8543Z-2.3631
X-26.3686Y-31.0716Z-2.3975
X-26.2256Y-31.0733Z-2.4159
X-26.5152Y-30.7837Z-2.3689
X-26.7274Y-30.5716Z-2.3375
X-26.9395Y-30.3594Z-2.3087
X-27.1516Y-30.1473Z-2.2825
X-27.3638Y-29.9352Z-2.2597
X-27.5759Y-29.723Z-2.2413
X-27.788Y-29.5109Z-2.227
X-28.0002Y-29.2988Z-2.2167
X-28.2123Y-29.0866Z-2.2096
X-28.6366Y-28.6624Z-2.2002
X-29.0608Y-28.2381Z-2.1899
X-29.273Y-28.026Z-2.1811
X-29.4851Y-27.8138Z-2.1685
X-29.6972Y-27.6017Z-2.151
X-29.9094Y-27.3896Z-2.1287
X-30.1215Y-27.1774Z-2.1004
X-30.3336Y-26.9653Z-2.0693
X-30.5458Y-26.7532Z-2.0352
X-30.7579Y-26.5411Z-1.9979
X-30.9207Y-26.3783Z-1.9676
X-30.9192Y-26.2384Z-1.9456
X-30.6873Y-26.4704Z-1.9904
X-30.4751Y-26.6826Z-2.0284
X-30.263Y-26.8947Z-2.0635
X-30.0509Y-27.1068Z-2.0955
X-29.8387Y-27.3189Z-2.1241
X-29.6266Y-27.5311Z-2.1472
X-29.4145Y-27.7432Z-2.1651
X-29.2023Y-27.9553Z-2.1784
X-28.9902Y-28.1675Z-2.1879
X-28.5659Y-28.5917Z-2.2001
X-28.1417Y-29.016Z-2.211
X-27.9295Y-29.2281Z-2.2192
X-27.7174Y-29.4403Z-2.2301
X-27.5053Y-29.6524Z-2.2447
X-27.2931Y-29.8645Z-2.2635
X-27.081Y-30.0767Z-2.2861
X-26.8689Y-30.2888Z-2.3134
X-26.6567Y-30.5009Z-2.3429
X-26.4446Y-30.7131Z-2.3749
X-26.2647Y-30.893Z-2.4039
X-26.0827Y-31.075Z-2.4358
X-25.9399Y-31.0765Z-2.4566
X-26.1579Y-30.8585Z-2.4167
X-26.374Y-30.6424Z-2.381
X-26.5861Y-30.4303Z-2.3483
X-26.7982Y-30.2182Z-2.318
X-27.0104Y-30.006Z-2.2903
X-27.2225Y-29.7939Z-2.2673
X-27.4346Y-29.5818Z-2.2481
X-27.6468Y-29.3696Z-2.2333
X-27.8589Y-29.1575Z-2.2216
X-28.071Y-28.9454Z-2.2129
X-28.4953Y-28.5211Z-2.1999
X-28.9196Y-28.0968Z-2.1858
X-29.1317Y-27.8847Z-2.1753
X-29.3438Y-27.6726Z-2.1613
X-29.556Y-27.4605Z-2.1426
X-29.7681Y-27.2483Z-2.119
X-29.9802Y-27.0362Z-2.0904
X-30.1924Y-26.8241Z-2.0573
X-30.4045Y-26.6119Z-2.0215
X-30.6166Y-26.3998Z-1.9826
X-30.9179Y-26.0985Z-1.9226
X-30.9166Y-25.9585Z-1.8985
X-30.546Y-26.3292Z-1.9746
X-30.3339Y-26.5413Z-2.0143
X-30.1217Y-26.7534Z-2.0513
X-29.9096Y-26.9656Z-2.0853
X-29.6975Y-27.1777Z-2.1139
X-29.4853Y-27.3898Z-2.138
X-29.2732Y-27.602Z-2.1571
X-29.0611Y-27.8141Z-2.172
X-28.8489Y-28.0262Z-2.1837
X-28.4247Y-28.4505Z-2.1997
X-28.0004Y-28.8747Z-2.215
X-27.7883Y-29.0869Z-2.2244
X-27.5761Y-29.299Z-2.2366
X-27.364Y-29.5111Z-2.252
X-27.1519Y-29.7233Z-2.2716
X-26.9397Y-29.9354Z-2.295
X-26.7276Y-30.1475Z-2.3229
X-26.5155Y-30.3597Z-2.354
X-26.3033Y-30.5718Z-2.3872
X-26.0513Y-30.8239Z-2.4304
X-25.7972Y-31.078Z-2.478
X-25.6547Y-31.0792Z-2.5002
X-25.9447Y-30.7892Z-2.4444
X-26.2327Y-30.5012Z-2.3935
X-26.4448Y-30.289Z-2.3596
X-26.657Y-30.0769Z-2.3277
X-26.8691Y-29.8648Z-2.3001
X-27.0812Y-29.6526Z-2.2763
X-27.2934Y-29.4405Z-2.2563
X-27.5055Y-29.2284Z-2.2402
X-27.7176Y-29.0162Z-2.2272
X-27.9298Y-28.8041Z-2.2168
X-28.354Y-28.3798Z-2.1995
X-28.7783Y-27.9556Z-2.1815
X-28.9904Y-27.7435Z-2.1688
X-29.2026Y-27.5313Z-2.153
X-29.4147Y-27.3192Z-2.1331
X-29.6268Y-27.1071Z-2.1087
X-29.839Y-26.8949Z-2.0796
X-30.0511Y-26.6828Z-2.0448
X-30.2632Y-26.4707Z-2.0071
X-30.4754Y-26.2585Z-1.9665
X-30.6945Y-26.0394Z-1.9215
X-30.9156Y-25.8182Z-1.8732
X-30.9151Y-25.7377Z-1.8582
X-30.9148Y-25.6779Z-1.8469
X-30.6587Y-25.9339Z-1.9048
X-30.4047Y-26.1879Z-1.9581
X-30.1926Y-26.4Z-1.9996
X-29.9805Y-26.6122Z-2.0385
X-29.7683Y-26.8243Z-2.0731
X-29.5562Y-27.0364Z-2.1028
X-29.3441Y-27.2486Z-2.128
X-29.1319Y-27.4607Z-2.1488
X-28.9198Y-27.6728Z-2.1653
X-28.7077Y-27.885Z-2.1788
X-28.2834Y-28.3092Z-2.1994
X-27.8591Y-28.7335Z-2.2185
X-27.647Y-28.9456Z-2.2301
X-27.4349Y-29.1577Z-2.2441
X-27.2227Y-29.3699Z-2.2606
X-27.0106Y-29.582Z-2.2809
X-26.7985Y-29.7941Z-2.3052
X-26.5864Y-30.0063Z-2.333
X-26.3742Y-30.2184Z-2.3654
X-26.1621Y-30.4305Z-2.4001
X-25.8383Y-30.7544Z-2.4588
X-25.5124Y-31.0802Z-2.5233
X-25.4848Y-31.0804Z-2.5278
X-25.3701Y-31.0812Z-2.5474
X-25.7318Y-30.7196Z-2.4736
X-26.0915Y-30.3599Z-2.407
X-26.3036Y-30.1478Z-2.3714
X-26.5157Y-29.9356Z-2.3387
X-26.7279Y-29.7235Z-2.3103
X-26.94Y-29.5114Z-2.2858
X-27.1521Y-29.2992Z-2.2649
X-27.3642Y-29.0871Z-2.2476
X-27.5764Y-28.875Z-2.233
X-27.7885Y-28.6629Z-2.2209
X-28.2128Y-28.2386Z-2.1994
X-28.637Y-27.8143Z-2.1765
X-28.8492Y-27.6022Z-2.1617
X-29.0613Y-27.3901Z-2.144
X-29.2734Y-27.1779Z-2.1226
X-29.4856Y-26.9658Z-2.0967
X-29.6977Y-26.7537Z-2.0664
X-29.9098Y-26.5415Z-2.0318
X-30.122Y-26.3294Z-1.992
X-30.3341Y-26.1173Z-1.9496
X-30.623Y-25.8283Z-1.8874
X-30.914Y-25.5374Z-1.8194
X-30.9137Y-25.4848Z-1.8089
X-30.9134Y-25.3967Z-1.7908
X-30.5874Y-25.7227Z-1.8693
X-30.2635Y-26.0466Z-1.9407
X-30.0513Y-26.2588Z-1.9841
X-29.8392Y-26.4709Z-2.0246
X-29.6271Y-26.683Z-2.0598
X-29.4149Y-26.8952Z-2.0905
X-29.2028Y-27.1073Z-2.1169
X-28.9907Y-27.3194Z-2.1392
X-28.7785Y-27.5316Z-2.158
X-28.5664Y-27.7437Z-2.1741
X-28.1421Y-28.168Z-2.1992
X-27.7179Y-28.5922Z-2.2229
X-27.5057Y-28.8044Z-2.2361
X-27.2936Y-29.0165Z-2.2515
X-27.0815Y-29.2286Z-2.2695
X-26.8694Y-29.4407Z-2.2911
X-26.6572Y-29.6529Z-2.316
X-26.4451Y-29.865Z-2.3449
X-26.233Y-30.0771Z-2.3774
X-26.0208Y-30.2893Z-2.4141
X-25.8231Y-30.487Z-2.4504
X-25.6253Y-30.6848Z-2.4887
X-25.4276Y-30.8825Z-2.5292
X-25.2279Y-31.0822Z-2.5723
X-25.0856Y-31.0832Z-2.5981
X-25.1017Y-31.0672Z-2.5945
X-25.3138Y-30.855Z-2.5474
X-25.5259Y-30.6429Z-2.5031
X-25.7381Y-30.4308Z-2.461
X-25.9502Y-30.2186Z-2.4211
X-26.1623Y-30.0065Z-2.3841
X-26.3745Y-29.7944Z-2.3514
X-26.5866Y-29.5822Z-2.3221
X-26.7987Y-29.3701Z-2.2966
X-27.0109Y-29.158Z-2.2745
X-27.223Y-28.9459Z-2.2557
X-27.4351Y-28.7337Z-2.2392
X-27.6472Y-28.5216Z-2.2249
X-28.0715Y-28.0973Z-2.199
X-28.4958Y-27.6731Z-2.1711
X-28.7079Y-27.4609Z-2.1542
X-28.92Y-27.2488Z-2.1344
X-29.1322Y-27.0367Z-2.1112
X-29.3443Y-26.8245Z-2.0839
X-29.5564Y-26.6124Z-2.0528
X-29.7686Y-26.4003Z-2.017
X-29.9807Y-26.1881Z-1.9761
X-30.1928Y-25.976Z-1.9318
X-30.5518Y-25.617Z-1.8507
X-30.7313Y-25.4375Z-1.8072
X-30.9128Y-25.256Z-1.7611
X-30.9125Y-25.1151Z-1.7302
X-30.7134Y-25.3141Z-1.7823
X-30.5164Y-25.5112Z-1.8314
X-30.3193Y-25.7083Z-1.8782
X-30.1222Y-25.9054Z-1.9226
X-29.9101Y-26.1175Z-1.968
X-29.6979Y-26.3296Z-2.009
X-29.4858Y-26.5418Z-2.0453
X-29.2737Y-26.7539Z-2.0769
X-29.0615Y-26.966Z-2.1053
X-28.8494Y-27.1782Z-2.1293
X-28.6373Y-27.3903Z-2.1501
X-28.4251Y-27.6024Z-2.1683
X-28.0009Y-28.0267Z-2.1987
X-27.5766Y-28.451Z-2.2269
X-27.3645Y-28.6631Z-2.2424
X-27.1524Y-28.8752Z-2.2599
X-26.9402Y-29.0874Z-2.2795
X-26.7281Y-29.2995Z-2.302
X-26.516Y-29.5116Z-2.3283
X-26.3038Y-29.7237Z-2.3578
X-26.0917Y-29.9359Z-2.3911
X-25.8796Y-30.148Z-2.4284
X-25.6674Y-30.3601Z-2.469
X-25.4553Y-30.5723Z-2.5117
X-25.2432Y-30.7844Z-2.5569
X-25.031Y-30.9965Z-2.6044
X-24.9436Y-31.084Z-2.6248
X-24.8525Y-31.0845Z-2.6423
X-24.8016Y-31.0847Z-2.6524
X-24.9604Y-30.9259Z-2.6147
X-25.1725Y-30.7138Z-2.5664
X-25.3847Y-30.5016Z-2.5206
X-25.8089Y-30.0774Z-2.4355
X-26.0211Y-29.8653Z-2.3981
X-26.2332Y-29.6531Z-2.3644
X-26.4453Y-29.441Z-2.3344
X-26.6575Y-29.2289Z-2.3079
X-26.8696Y-29.0167Z-2.2844
X-27.0817Y-28.8046Z-2.264
X-27.506Y-28.3803Z-2.2291
X-27.9303Y-27.9561Z-2.1984
X-28.3545Y-27.5318Z-2.1658
X-28.5666Y-27.3197Z-2.1462
X-28.7788Y-27.1075Z-2.124
X-28.9909Y-26.8954Z-2.0989
X-29.203Y-26.6833Z-2.07
X-29.4152Y-26.4711Z-2.0374
X-29.6273Y-26.259Z-2.0006
X-29.8394Y-26.0469Z-1.9593
X-30.0516Y-25.8347Z-1.9133
X-30.2637Y-25.6226Z-1.8643
X-30.4758Y-25.4105Z-1.8128
X-30.688Y-25.1983Z-1.7585
X-30.9001Y-24.9862Z-1.7015
X-30.9123Y-24.974Z-1.6981
X-30.9122Y-24.8328Z-1.6649
X-30.8295Y-24.9156Z-1.6883
X-30.6173Y-25.1277Z-1.746
X-30.4052Y-25.3398Z-1.8013
X-30.1931Y-25.552Z-1.8537
X-29.9809Y-25.7641Z-1.9036
X-29.7688Y-25.9762Z-1.9502
X-29.5567Y-26.1884Z-1.9919
X-29.3445Y-26.4005Z-2.0293
X-29.1324Y-26.6126Z-2.0628
X-28.9203Y-26.8248Z-2.0925
X-28.7081Y-27.0369Z-2.1187
X-28.496Y-27.249Z-2.1421
X-28.2839Y-27.4612Z-2.1625
X-27.8596Y-27.8854Z-2.1982
X-27.4354Y-28.3097Z-2.2312
X-27.0111Y-28.734Z-2.2682
X-26.799Y-28.9461Z-2.2896
X-26.5868Y-29.1582Z-2.3139
X-26.3747Y-29.3704Z-2.3409
X-26.1626Y-29.5825Z-2.3716
X-25.9504Y-29.7946Z-2.4057
X-25.7383Y-30.0068Z-2.4435
X-25.5262Y-30.2189Z-2.4853
X-25.314Y-30.431Z-2.5296
X-25.1019Y-30.6431Z-2.5763
X-24.8898Y-30.8553Z-2.6251
X-24.6598Y-31.0853Z-2.6809
X-24.518Y-31.0858Z-2.7102
X-24.8191Y-30.7846Z-2.6358
X-25.0313Y-30.5725Z-2.5862
X-25.2434Y-30.3604Z-2.5389
X-25.4555Y-30.1483Z-2.4937
X-25.6677Y-29.9361Z-2.4519
X-25.8798Y-29.724Z-2.4137
X-26.0919Y-29.5119Z-2.3791
X-26.3041Y-29.2997Z-2.3479
X-26.5162Y-29.0876Z-2.32
X-26.7283Y-28.8755Z-2.2949
X-26.9405Y-28.6633Z-2.2726
X-27.3647Y-28.2391Z-2.2334
X-27.789Y-27.8148Z-2.1978
X-28.2133Y-27.3905Z-2.1593
X-28.4254Y-27.1784Z-2.1375
X-28.6375Y-26.9663Z-2.1133
X-28.8496Y-26.7541Z-2.0861
X-29.0618Y-26.542Z-2.0553
X-29.2739Y-26.3299Z-2.0206
X-29.486Y-26.1177Z-1.9827
X-29.6982Y-25.9056Z-1.9405
X-29.9103Y-25.6935Z-1.8939
X-30.1224Y-25.4813Z-1.8429
X-30.3346Y-25.2692Z-1.7895
X-30.5467Y-25.0571Z-1.7335
X-30.7588Y-24.845Z-1.6747
X-30.9122Y-24.6916Z-1.6305
X-30.9123Y-24.5502Z-1.595
X-30.6882Y-24.7743Z-1.6609
X-30.4761Y-24.9865Z-1.7204
X-30.2639Y-25.1986Z-1.7775
X-30.0518Y-25.4107Z-1.8319
X-29.8397Y-25.6228Z-1.8835
X-29.6275Y-25.835Z-1.9306
X-29.4154Y-26.0471Z-1.9734
X-29.2033Y-26.2592Z-2.0121
X-28.9912Y-26.4714Z-2.0476
X-28.779Y-26.6835Z-2.0793
X-28.5669Y-26.8956Z-2.1077
X-28.3548Y-27.1078Z-2.1333
X-28.1426Y-27.3199Z-2.1565
X-27.7184Y-27.7442Z-2.1971
X-27.2941Y-28.1684Z-2.2355
X-26.8698Y-28.5927Z-2.277
X-26.6577Y-28.8048Z-2.3003
X-26.4456Y-29.017Z-2.3261
X-26.2334Y-29.2291Z-2.3549
X-26.0213Y-29.4412Z-2.3865
X-25.8092Y-29.6534Z-2.4218
X-25.597Y-29.8655Z-2.4602
X-25.3849Y-30.0776Z-2.5021
X-25.1728Y-30.2898Z-2.5482
X-24.9606Y-30.5019Z-2.5963
X-24.7485Y-30.714Z-2.6467
X-24.3764Y-31.0861Z-2.7405
X-24.2349Y-31.0864Z-2.7718
X-24.4574Y-30.8639Z-2.7133
X-24.6779Y-30.6434Z-2.6577
X-24.89Y-30.4313Z-2.6067
X-25.1021Y-30.2191Z-2.5578
X-25.3143Y-30.007Z-2.5113
X-25.5264Y-29.7949Z-2.4688
X-25.7385Y-29.5827Z-2.4299
X-25.9507Y-29.3706Z-2.3942
X-26.1628Y-29.1585Z-2.362
X-26.3749Y-28.9463Z-2.3325
X-26.5871Y-28.7342Z-2.3058
X-26.7992Y-28.5221Z-2.2815
X-27.2235Y-28.0978Z-2.2372
X-27.6477Y-27.6735Z-2.1969
X-28.072Y-27.2493Z-2.1532
X-28.2841Y-27.0371Z-2.1291
X-28.4963Y-26.825Z-2.1021
X-28.7084Y-26.6129Z-2.0724
X-28.9205Y-26.4007Z-2.0396
X-29.1327Y-26.1886Z-2.0036
X-29.3448Y-25.9765Z-1.9638
X-29.5569Y-25.7643Z-1.9202
X-29.769Y-25.5522Z-1.8726
X-29.9812Y-25.3401Z-1.8206
X-30.1933Y-25.128Z-1.7651
X-30.4054Y-24.9158Z-1.7073
X-30.6176Y-24.7037Z-1.6467
X-30.9125Y-24.4088Z-1.5583
X-30.9127Y-24.2673Z-1.5203
X-30.5469Y-24.6331Z-1.6323
X-30.3348Y-24.8452Z-1.6937
X-30.1227Y-25.0573Z-1.7527
X-29.9105Y-25.2695Z-1.8091
X-29.6984Y-25.4816Z-1.8614
X-29.4863Y-25.6937Z-1.9096
X-29.2742Y-25.9059Z-1.9536
X-29.062Y-26.118Z-1.9944
X-28.8499Y-26.3301Z-2.0316
X-28.6378Y-26.5422Z-2.0655
X-28.4256Y-26.7544Z-2.0963
X-28.2135Y-26.9665Z-2.1242
X-28.0014Y-27.1786Z-2.1498
X-27.5771Y-27.6029Z-2.1965
X-27.1528Y-28.0272Z-2.2394
X-26.7286Y-28.4514Z-2.2859
X-26.5164Y-28.6636Z-2.3113
X-26.3043Y-28.8757Z-2.339
X-26.0922Y-29.0878Z-2.3692
X-25.88Y-29.3Z-2.4024
X-25.6679Y-29.5121Z-2.4386
X-25.4558Y-29.7242Z-2.4778
X-25.2436Y-29.9364Z-2.5207
X-25.0315Y-30.1485Z-2.5675
X-24.8194Y-30.3606Z-2.6172
X-24.6072Y-30.5728Z-2.6691
X-24.3513Y-30.8287Z-2.7345
X-24.0934Y-31.0866Z-2.8039
X-23.952Y-31.0867Z-2.837
X-24.2453Y-30.7934Z-2.7564
X-24.5366Y-30.5021Z-2.6805
X-24.9609Y-30.0779Z-2.5772
X-25.173Y-29.8657Z-2.5305
X-25.3851Y-29.6536Z-2.4871
X-25.5973Y-29.4415Z-2.4474
X-25.8094Y-29.2293Z-2.4106
X-26.0215Y-29.0172Z-2.3769
X-26.2337Y-28.8051Z-2.3456
X-26.4458Y-28.5929Z-2.3169
X-26.6579Y-28.3808Z-2.2904
X-27.0822Y-27.9565Z-2.2417
X-27.5065Y-27.5323Z-2.1955
X-27.9307Y-27.108Z-2.1465
X-28.1429Y-26.8959Z-2.1196
X-28.355Y-26.6837Z-2.0904
X-28.5671Y-26.4716Z-2.0584
X-28.7793Y-26.2595Z-2.0237
X-28.9914Y-26.0474Z-1.9854
X-29.2035Y-25.8352Z-1.9434
X-29.4157Y-25.6231Z-1.8987
X-29.6278Y-25.411Z-1.8498
X-29.8399Y-25.1988Z-1.7971
X-30.052Y-24.9867Z-1.7398
X-30.2642Y-24.7746Z-1.68
X-30.4763Y-24.5624Z-1.6177
X-30.6936Y-24.3451Z-1.5511
X-30.9129Y-24.1258Z-1.481
X-30.9132Y-23.9842Z-1.441
X-30.6585Y-24.239Z-1.524
X-30.4057Y-24.4918Z-1.6027
X-30.1936Y-24.7039Z-1.666
X-29.9814Y-24.9161Z-1.7269
X-29.7693Y-25.1282Z-1.7845
X-29.5572Y-25.3403Z-1.8378
X-29.345Y-25.5525Z-1.8874
X-29.1329Y-25.7646Z-1.9333
X-28.9208Y-25.9767Z-1.976
X-28.7086Y-26.1889Z-2.0152
X-28.4965Y-26.401Z-2.0512
X-28.2844Y-26.6131Z-2.0846
X-28.0722Y-26.8252Z-2.1153
X-27.8601Y-27.0374Z-2.1432
X-27.4358Y-27.4616Z-2.195
X-27.0116Y-27.8859Z-2.2437
X-26.5873Y-28.3102Z-2.295
X-26.3752Y-28.5223Z-2.3225
X-26.163Y-28.7344Z-2.3522
X-25.9509Y-28.9466Z-2.3846
X-25.7388Y-29.1587Z-2.4188
X-25.5266Y-29.3708Z-2.4562
X-25.3145Y-29.583Z-2.4968
X-25.1024Y-29.7951Z-2.5405
X-24.8902Y-30.0072Z-2.5876
X-24.6781Y-30.2194Z-2.6387
X-24.466Y-30.4315Z-2.6923
X-24.1394Y-30.7581Z-2.7787
X-23.8108Y-31.0867Z-2.8709
X-23.7144Y-31.0866Z-2.8945
X-23.6697Y-31.0865Z-2.9057
X-24.0335Y-30.7227Z-2.8015
X-24.3954Y-30.3609Z-2.7042
X-24.6075Y-30.1487Z-2.6499
X-24.8196Y-29.9366Z-2.5983
X-25.0318Y-29.7245Z-2.5509
X-25.2439Y-29.5123Z-2.5065
X-25.456Y-29.3002Z-2.4656
X-25.6681Y-29.0881Z-2.4273
X-25.8803Y-28.8759Z-2.3919
X-26.0924Y-28.6638Z-2.3588
X-26.5167Y-28.2395Z-2.2991
X-26.9409Y-27.8153Z-2.2458
X-27.3652Y-27.391Z-2.1941
X-27.7895Y-26.9667Z-2.1397
X-28.0016Y-26.7546Z-2.1103
X-28.2137Y-26.5425Z-2.0787
X-28.4259Y-26.3304Z-2.0441
X-28.638Y-26.1182Z-2.0068
X-28.8501Y-25.9061Z-1.9664
X-29.0623Y-25.694Z-1.9228
X-29.2744Y-25.4818Z-1.876
X-29.4865Y-25.2697Z-1.8256
X-29.6987Y-25.0576Z-1.7716
X-29.9108Y-24.8454Z-1.7136
X-30.1229Y-24.6333Z-1.6517
X-30.3351Y-24.4212Z-1.5875
X-30.6233Y-24.1329Z-1.4961
X-30.9137Y-23.8426Z-1.4014
X-30.9138Y-23.7012Z-1.3633
X-30.2644Y-24.3505Z-1.5719
X-30.0523Y-24.5627Z-1.6372
X-29.8402Y-24.7748Z-1.7
X-29.628Y-24.9869Z-1.7583
X-29.4159Y-25.1991Z-1.813
X-29.2038Y-25.4112Z-1.8643
X-28.9916Y-25.6233Z-1.9123
X-28.7795Y-25.8355Z-1.9571
X-28.5674Y-26.0476Z-1.9985
X-28.3552Y-26.2597Z-2.0368
X-28.1431Y-26.4719Z-2.0723
X-27.931Y-26.684Z-2.1053
X-27.7188Y-26.8961Z-2.1362
X-27.2946Y-27.3204Z-2.1931
X-26.8703Y-27.7446Z-2.2477
X-26.446Y-28.1689Z-2.3037
X-26.2339Y-28.381Z-2.3336
X-26.0218Y-28.5932Z-2.3656
X-25.8096Y-28.8053Z-2.3994
X-25.5975Y-29.0174Z-2.436
X-25.3854Y-29.2296Z-2.4749
X-25.1733Y-29.4417Z-2.5169
X-24.9611Y-29.6538Z-2.5614
X-24.749Y-29.866Z-2.6095
X-24.5369Y-30.0781Z-2.6608
X-24.3247Y-30.2902Z-2.7162
X-23.9276Y-30.6873Z-2.8248
X-23.5286Y-31.0864Z-2.9415
X-23.4615Y-31.0863Z-2.9588
X-23.3875Y-31.0862Z-2.9782
X-23.4056Y-31.0681Z-2.9726
X-23.6177Y-30.856Z-2.9084
X-23.8298Y-30.6439Z-2.8465
X-24.042Y-30.4317Z-2.7864
X-24.2541Y-30.2196Z-2.7285
X-24.4662Y-30.0075Z-2.6727
X-24.6784Y-29.7953Z-2.6209
X-24.8905Y-29.5832Z-2.5724
X-25.1026Y-29.3711Z-2.5272
X-25.3148Y-29.1589Z-2.4843
X-25.5269Y-28.9468Z-2.4448
X-25.739Y-28.7347Z-2.407
X-25.9511Y-28.5225Z-2.3724
X-26.1633Y-28.3104Z-2.3391
X-26.3754Y-28.0983Z-2.3084
X-26.7997Y-27.674Z-2.2493
X-27.2239Y-27.2498Z-2.1926
X-27.6482Y-26.8255Z-2.1328
X-27.8603Y-26.6134Z-2.1009
X-28.0725Y-26.4012Z-2.0665
X-28.2846Y-26.1891Z-2.0296
X-28.4967Y-25.977Z-1.99
X-28.7089Y-25.7648Z-1.9476
X-28.921Y-25.5527Z-1.9018
X-29.1331Y-25.3406Z-1.8526
X-29.3453Y-25.1284Z-1.8002
X-29.5574Y-24.9163Z-1.7448
X-29.7695Y-24.7042Z-1.6856
X-29.9817Y-24.492Z-1.6224
X-30.1938Y-24.2799Z-1.5562
X-30.5526Y-23.9211Z-1.4397
X-30.732Y-23.7417Z-1.3822
X-30.9134Y-23.5603Z-1.3273
X-30.9132Y-23.4615Z-1.3037
Y-23.4192Z-1.2941
X-30.7142Y-23.6182Z-1.3507
X-30.5172Y-23.8153Z-1.4117
X-30.1232Y-24.2093Z-1.5401
X-29.911Y-24.4214Z-1.6074
X-29.6989Y-24.6335Z-1.671
X-29.4868Y-24.8457Z-1.7309
X-29.2746Y-25.0578Z-1.7874
X-29.0625Y-25.2699Z-1.8409
X-28.8504Y-25.4821Z-1.8909
X-28.6382Y-25.6942Z-1.9377
X-28.4261Y-25.9063Z-1.9814
X-28.214Y-26.1185Z-2.0224
X-28.0018Y-26.3306Z-2.0607
X-27.5776Y-26.7549Z-2.1294
X-27.1533Y-27.1791Z-2.1919
X-26.729Y-27.6034Z-2.2515
X-26.3048Y-28.0276Z-2.3129
X-25.8805Y-28.4519Z-2.3793
X-25.6684Y-28.664Z-2.4152
X-25.4563Y-28.8762Z-2.4535
X-25.2441Y-29.0883Z-2.4942
X-25.032Y-29.3004Z-2.5376
X-24.8199Y-29.5126Z-2.5835
X-24.6077Y-29.7247Z-2.6326
X-24.3956Y-29.9368Z-2.6849
X-24.1835Y-30.149Z-2.7409
X-23.7592Y-30.5732Z-2.8604
X-23.5471Y-30.7854Z-2.9233
X-23.3349Y-30.9975Z-2.9882
X-23.2465Y-31.086Z-3.0158
X-23.1056Y-31.0856Z-3.0543
X-23.2643Y-30.9269Z-3.0039
X-23.4764Y-30.7147Z-2.9383
X-23.6886Y-30.5026Z-2.8748
X-24.1128Y-30.0783Z-2.7534
X-24.325Y-29.8662Z-2.6974
X-24.5371Y-29.6541Z-2.6446
X-24.7492Y-29.4419Z-2.595
X-24.9614Y-29.2298Z-2.548
X-25.1735Y-29.0177Z-2.504
X-25.3856Y-28.8055Z-2.4623
X-25.5978Y-28.5934Z-2.423
X-25.8099Y-28.3813Z-2.3856
X-26.2342Y-27.957Z-2.3168
X-26.6584Y-27.5328Z-2.2532
X-27.0827Y-27.1085Z-2.1909
X-27.5069Y-26.6842Z-2.1259
X-27.9312Y-26.26Z-2.0542
X-28.1433Y-26.0478Z-2.0149
X-28.3555Y-25.8357Z-1.9728
X-28.5676Y-25.6236Z-1.9279
X-28.7797Y-25.4114Z-1.88
X-28.9919Y-25.1993Z-1.829
X-29.204Y-24.9872Z-1.7747
X-29.4161Y-24.775Z-1.7172
X-29.6283Y-24.5629Z-1.6562
X-29.8404Y-24.3508Z-1.5919
X-30.0525Y-24.1386Z-1.5237
X-30.2647Y-23.9265Z-1.4541
X-30.4768Y-23.7144Z-1.3862
X-30.6889Y-23.5022Z-1.3232
X-30.9011Y-23.2901Z-1.2667
X-30.9131Y-23.278Z-1.2636
X-30.9132Y-23.2086Z-1.2499
X-30.9133Y-23.1366Z-1.2362
X-30.8304Y-23.2195Z-1.2556
X-30.6183Y-23.4316Z-1.3098
X-30.4062Y-23.6437Z-1.3707
X-30.194Y-23.8559Z-1.4373
X-29.9819Y-24.068Z-1.5069
X-29.7698Y-24.2801Z-1.5759
X-29.5576Y-24.4923Z-1.6414
X-29.3455Y-24.7044Z-1.7033
X-29.1334Y-24.9165Z-1.7618
X-28.9212Y-25.1287Z-1.8174
X-28.7091Y-25.3408Z-1.8698
X-28.497Y-25.5529Z-1.9188
X-28.2848Y-25.7651Z-1.9645
X-28.0727Y-25.9772Z-2.0076
X-27.8606Y-26.1893Z-2.0481
X-27.4363Y-26.6136Z-2.1222
X-27.012Y-27.0379Z-2.1899
X-26.5878Y-27.4621Z-2.2551
X-26.1635Y-27.8864Z-2.3212
X-25.7393Y-28.3107Z-2.3924
X-25.5271Y-28.5228Z-2.4306
X-25.315Y-28.7349Z-2.4712
X-25.1029Y-28.947Z-2.5136
X-24.8907Y-29.1592Z-2.5588
X-24.6786Y-29.3713Z-2.6064
X-24.4665Y-29.5834Z-2.6569
X-24.2543Y-29.7956Z-2.7101
X-24.0422Y-30.0077Z-2.7666
X-23.8301Y-30.2198Z-2.8269
X-23.6179Y-30.432Z-2.8892
X-23.4058Y-30.6441Z-2.9535
X-23.1937Y-30.8562Z-3.0199
X-22.9649Y-31.085Z-3.0937
X-22.8242Y-31.0845Z-3.1334
X-23.123Y-30.7856Z-3.0361
X-23.5473Y-30.3613Z-2.904
X-23.7594Y-30.1492Z-2.8407
X-23.9716Y-29.9371Z-2.7801
X-24.1837Y-29.7249Z-2.7233
X-24.3958Y-29.5128Z-2.6692
X-24.608Y-29.3007Z-2.6178
X-24.8201Y-29.0885Z-2.5696
X-25.0322Y-28.8764Z-2.5236
X-25.2444Y-28.6643Z-2.4799
X-25.4565Y-28.4522Z-2.4382
X-25.6686Y-28.24Z-2.3992
X-25.8808Y-28.0279Z-2.3615
X-26.0929Y-27.8158Z-2.3258
X-26.5172Y-27.3915Z-2.2569
X-26.9414Y-26.9672Z-2.1893
X-27.3657Y-26.543Z-2.1189
X-27.7899Y-26.1187Z-2.0425
X-28.0021Y-25.9066Z-2.0007
X-28.2142Y-25.6944Z-1.9562
X-28.4263Y-25.4823Z-1.9092
X-28.6385Y-25.2702Z-1.8592
X-28.8506Y-25.058Z-1.8059
X-29.0627Y-24.8459Z-1.749
X-29.2749Y-24.6338Z-1.6891
X-29.487Y-24.4216Z-1.626
X-29.6991Y-24.2095Z-1.5598
X-29.9113Y-23.9974Z-1.4901
X-30.1234Y-23.7852Z-1.4207
X-30.3355Y-23.5731Z-1.3558
X-30.5477Y-23.361Z-1.2971
X-30.7598Y-23.1489Z-1.2451
X-30.9135Y-22.9951Z-1.2116
X-30.9136Y-22.9557Z-1.2051
X-30.9138Y-22.8536Z-1.1896
X-30.6892Y-23.0782Z-1.2355
X-30.477Y-23.2904Z-1.2853
X-30.2649Y-23.5025Z-1.3418
X-30.0528Y-23.7146Z-1.4046
X-29.9467Y-23.8207Z-1.438
X-29.8406Y-23.9267Z-1.4734
X-29.6285Y-24.1389Z-1.5434
X-29.4164Y-24.351Z-1.6109
X-29.2042Y-24.5631Z-1.675
X-28.9921Y-24.7753Z-1.7361
X-28.78Y-24.9874Z-1.7938
X-28.5678Y-25.1995Z-1.8483
X-28.3557Y-25.4117Z-1.8996
X-28.1436Y-25.6238Z-1.948
X-27.9314Y-25.8359Z-1.9936
X-27.7193Y-26.0481Z-2.0363
X-27.2951Y-26.4723Z-2.1156
X-26.8708Y-26.8966Z-2.1884
X-26.4465Y-27.3209Z-2.2586
X-26.0223Y-27.7451Z-2.3304
X-25.598Y-28.1694Z-2.406
X-25.3859Y-28.3815Z-2.4463
X-25.1737Y-28.5937Z-2.4888
X-24.9616Y-28.8058Z-2.5332
X-24.7495Y-29.0179Z-2.5804
X-24.5373Y-29.23Z-2.6297
X-24.3252Y-29.4422Z-2.6818
X-24.1131Y-29.6543Z-2.7364
X-23.9009Y-29.8664Z-2.794
X-23.6888Y-30.0786Z-2.8546
X-23.4767Y-30.2907Z-2.9189
X-23.2645Y-30.5028Z-2.9847
X-23.0524Y-30.715Z-3.0527
X-22.6832Y-31.0842Z-3.1723
X-22.5763Z-3.1992
X-22.5419Z-3.2072
X-22.6534Y-30.9727Z-3.1751
X-22.7628Y-30.8633Z-3.141
X-22.9818Y-30.6443Z-3.0693
X-23.406Y-30.2201Z-2.934
X-23.6182Y-30.0079Z-2.8693
X-23.8303Y-29.7958Z-2.8081
X-24.0424Y-29.5837Z-2.75
X-24.2546Y-29.3715Z-2.6944
X-24.4667Y-29.1594Z-2.6416
X-24.6788Y-28.9473Z-2.591
X-24.891Y-28.7352Z-2.5431
X-25.1031Y-28.523Z-2.4973
X-25.3152Y-28.3109Z-2.4539
X-25.5274Y-28.0988Z-2.4124
X-25.9516Y-27.6745Z-2.3346
X-26.3759Y-27.2502Z-2.2604
X-26.8002Y-26.826Z-2.1874
X-27.2244Y-26.4017Z-2.1121
X-27.6487Y-25.9774Z-2.0301
X-27.8608Y-25.7653Z-1.986
X-28.0729Y-25.5532Z-1.9394
X-28.2851Y-25.341Z-1.8902
X-28.4972Y-25.1289Z-1.838
X-28.7093Y-24.9168Z-1.7824
X-28.9215Y-24.7046Z-1.7237
X-29.1336Y-24.4925Z-1.6618
X-29.3457Y-24.2804Z-1.5965
X-29.77Y-23.8561Z-1.4567
X-29.8761Y-23.7501Z-1.4213
X-29.9821Y-23.644Z-1.3889
X-30.1943Y-23.4319Z-1.3284
X-30.4064Y-23.2197Z-1.2742
X-30.6185Y-23.0076Z-1.2265
X-30.7653Y-22.8608Z-1.1971
X-30.9141Y-22.712Z-1.1706
X-30.9146Y-22.5703Z-1.1543
X-30.7302Y-22.7546Z-1.1839
X-30.5479Y-22.937Z-1.218
X-30.3358Y-23.1491Z-1.2636
X-30.1236Y-23.3612Z-1.3155
X-29.9115Y-23.5734Z-1.3733
X-29.8054Y-23.6794Z-1.406
X-29.6994Y-23.7855Z-1.441
X-29.2751Y-24.2097Z-1.582
X-29.063Y-24.4219Z-1.6483
X-28.8508Y-24.634Z-1.7114
X-28.6387Y-24.8461Z-1.7712
X-28.4266Y-25.0583Z-1.8285
X-28.2144Y-25.2704Z-1.8815
X-28.0023Y-25.4825Z-1.9318
X-27.7902Y-25.6947Z-1.9795
X-27.5781Y-25.9068Z-2.0246
X-27.1538Y-26.3311Z-2.1083
X-26.7295Y-26.7553Z-2.1865
X-26.3053Y-27.1796Z-2.2618
X-25.881Y-27.6039Z-2.338
X-25.4567Y-28.0281Z-2.419
X-25.2446Y-28.2403Z-2.4615
X-25.0325Y-28.4524Z-2.5061
X-24.8203Y-28.6645Z-2.5527
X-24.6082Y-28.8767Z-2.6017
X-24.3961Y-29.0888Z-2.6529
X-24.1839Y-29.3009Z-2.7069
X-23.9718Y-29.5131Z-2.7634
X-23.7597Y-29.7252Z-2.8225
X-23.5475Y-29.9373Z-2.8843
X-23.3354Y-30.1494Z-2.9494
X-22.9111Y-30.5737Z-3.0862
X-22.7841Y-30.7008Z-3.1279
X-22.657Y-30.8279Z-3.1678
X-22.5299Y-30.9549Z-3.2041
X-22.4009Y-31.084Z-3.2356
X-22.3234Y-31.0837Z-3.2485
X-22.2601Y-31.0835Z-3.2579
X-22.4067Y-30.9369Z-3.2282
X-22.5513Y-30.7923Z-3.1922
X-22.6959Y-30.6477Z-3.1496
X-22.8405Y-30.5031Z-3.1031
X-23.2648Y-30.0788Z-2.9646
X-23.4769Y-29.8667Z-2.8996
X-23.689Y-29.6546Z-2.837
X-23.9012Y-29.4424Z-2.7766
X-24.1133Y-29.2303Z-2.7195
X-24.3254Y-29.0182Z-2.6642
X-24.5376Y-28.806Z-2.6123
X-24.7497Y-28.5939Z-2.5622
X-24.9618Y-28.3818Z-2.5147
X-25.174Y-28.1696Z-2.4687
X-25.3861Y-27.9575Z-2.4249
X-25.8104Y-27.5332Z-2.3423
X-26.2346Y-27.109Z-2.2634
X-26.6589Y-26.6847Z-2.1855
X-27.0832Y-26.2604Z-2.1054
X-27.5074Y-25.8362Z-2.019
X-27.7196Y-25.624Z-1.9732
X-27.9317Y-25.4119Z-1.9243
X-28.1438Y-25.1998Z-1.8727
X-28.3559Y-24.9876Z-1.8185
X-28.5681Y-24.7755Z-1.7605
X-28.7802Y-24.5634Z-1.6999
X-28.9923Y-24.3513Z-1.6359
X-29.2045Y-24.1391Z-1.5686
X-29.4166Y-23.927Z-1.4987
X-29.6287Y-23.7149Z-1.4268
X-29.7348Y-23.6088Z-1.3923
X-29.8409Y-23.5027Z-1.3596
X-29.9469Y-23.3967Z-1.3304
X-30.053Y-23.2906Z-1.3035
X-30.2651Y-23.0785Z-1.2538
X-30.4773Y-22.8663Z-1.2104
X-30.6952Y-22.6484Z-1.1723
X-30.915Y-22.4286Z-1.1406
X-30.9153Y-22.3234Z-1.1322
X-30.9154Y-22.2869Z-1.1298
X-30.7867Y-22.4156Z-1.145
X-30.66Y-22.5423Z-1.1622
X-30.5333Y-22.669Z-1.1817
X-30.4066Y-22.7957Z-1.2034
X-30.1945Y-23.0078Z-1.2448
X-29.9824Y-23.22Z-1.2921
X-29.8763Y-23.326Z-1.3179
X-29.7702Y-23.4321Z-1.3473
X-29.6642Y-23.5382Z-1.3797
X-29.5581Y-23.6442Z-1.4138
X-29.1338Y-24.0685Z-1.5554
X-28.9217Y-24.2806Z-1.6235
X-28.7096Y-24.4928Z-1.6882
X-28.4975Y-24.7049Z-1.7497
X-28.2853Y-24.917Z-1.8085
X-28.0732Y-25.1291Z-1.8639
X-27.8611Y-25.3413Z-1.9165
X-27.6489Y-25.5534Z-1.9662
X-27.4368Y-25.7655Z-2.0134
X-27.0125Y-26.1898Z-2.1023
X-26.5883Y-26.6141Z-2.1847
X-26.164Y-27.0383Z-2.2647
X-25.7397Y-27.4626Z-2.3457
X-25.3155Y-27.8869Z-2.4313
X-25.1033Y-28.099Z-2.476
X-24.8912Y-28.3111Z-2.5228
X-24.6791Y-28.5233Z-2.5716
X-24.4669Y-28.7354Z-2.6229
X-24.2548Y-28.9475Z-2.676
X-24.0427Y-29.1597Z-2.7321
X-23.8305Y-29.3718Z-2.7903
X-23.6184Y-29.5839Z-2.8515
X-23.4063Y-29.7961Z-2.9148
X-23.1941Y-30.0082Z-2.9809
X-22.7699Y-30.4324Z-3.12
X-22.6078Y-30.5946Z-3.17
X-22.5267Y-30.6756Z-3.1926
X-22.4457Y-30.7567Z-3.213
X-22.2836Y-30.9188Z-3.2475
X-22.2025Y-30.9998Z-3.2618
X-22.1195Y-31.0829Z-3.2742
X-22.0705Y-31.0826Z-3.2786
X-21.9791Y-31.082Z-3.2849
X-22.0709Y-30.9902Z-3.2747
X-22.1606Y-30.9004Z-3.2624
X-22.2504Y-30.8107Z-3.2476
X-22.3402Y-30.7209Z-3.2303
X-22.4299Y-30.6311Z-3.2105
X-22.5197Y-30.5414Z-3.1883
X-22.6095Y-30.4516Z-3.1634
X-22.6993Y-30.3618Z-3.1362
X-23.1235Y-29.9376Z-2.9973
X-23.3357Y-29.7254Z-2.9305
X-23.5478Y-29.5133Z-2.866
X-23.7599Y-29.3012Z-2.8041
X-23.972Y-29.089Z-2.7445
X-24.1842Y-28.8769Z-2.6874
X-24.3963Y-28.6648Z-2.6327
X-24.6084Y-28.4526Z-2.581
X-24.8206Y-28.2405Z-2.5308
X-25.2448Y-27.8162Z-2.4369
X-25.6691Y-27.392Z-2.3498
X-26.0934Y-26.9677Z-2.2662
X-26.5176Y-26.5434Z-2.1838
X-26.9419Y-26.1192Z-2.0986
X-27.3662Y-25.6949Z-2.0077
X-27.5783Y-25.4828Z-1.9593
X-27.7904Y-25.2706Z-1.9085
X-28.0026Y-25.0585Z-1.8553
X-28.2147Y-24.8464Z-1.7993
X-28.4268Y-24.6343Z-1.7398
X-28.639Y-24.4221Z-1.6776
X-28.8511Y-24.21Z-1.6124
X-29.0632Y-23.9979Z-1.544
X-29.4875Y-23.5736Z-1.4022
X-29.5935Y-23.4675Z-1.3685
X-29.6996Y-23.3615Z-1.3366
X-29.8057Y-23.2554Z-1.3072
X-29.9117Y-23.1493Z-1.2809
X-30.1239Y-22.9372Z-1.2361
X-30.336Y-22.7251Z-1.197
X-30.4805Y-22.5806Z-1.1739
X-30.6249Y-22.4362Z-1.1536
X-30.7694Y-22.2917Z-1.1363
X-30.9158Y-22.1452Z-1.1216
X-30.9161Y-22.0705Z-1.1184
X-30.9164Y-22.0034Z-1.116
X-30.7521Y-22.1677Z-1.1296
X-30.5899Y-22.3299Z-1.1465
X-30.4276Y-22.4922Z-1.1672
X-30.2654Y-22.6544Z-1.1913
X-30.0532Y-22.8666Z-1.2282
X-29.9472Y-22.9726Z-1.2487
X-29.8411Y-23.0787Z-1.2716
X-29.735Y-23.1848Z-1.2977
X-29.629Y-23.2908Z-1.3269
X-29.4168Y-23.503Z-1.3918
X-28.9926Y-23.9272Z-1.5324
X-28.7805Y-24.1394Z-1.6013
X-28.5683Y-24.3515Z-1.6672
X-28.3562Y-24.5636Z-1.7302
X-28.1441Y-24.7758Z-1.7901
X-27.9319Y-24.9879Z-1.8471
X-27.7198Y-25.2Z-1.9013
X-27.2955Y-25.6243Z-2.0028
X-26.8713Y-26.0485Z-2.0954
X-26.447Y-26.4728Z-2.1825
X-26.0227Y-26.8971Z-2.2674
X-25.5985Y-27.3213Z-2.353
X-25.1742Y-27.7456Z-2.4428
X-24.7499Y-28.1699Z-2.5385
X-24.5378Y-28.382Z-2.5898
X-24.3257Y-28.5941Z-2.6431
X-24.1135Y-28.8063Z-2.6982
X-23.9014Y-29.0184Z-2.7566
X-23.6893Y-29.2305Z-2.8173
X-23.4772Y-29.4427Z-2.8802
X-23.265Y-29.6548Z-2.9454
X-23.0529Y-29.8669Z-3.0135
X-22.8408Y-30.0791Z-3.0842
X-22.7347Y-30.1851Z-3.119
X-22.6286Y-30.2912Z-3.1518
X-22.5302Y-30.3896Z-3.1794
X-22.4317Y-30.4881Z-3.204
X-22.3332Y-30.5866Z-3.2256
X-22.2348Y-30.685Z-3.2442
X-22.1363Y-30.7835Z-3.2599
X-22.0379Y-30.882Z-3.2727
X-21.9394Y-30.9804Z-3.2827
X-21.839Y-31.0809Z-3.2899
X-21.8176Y-31.0807Z-3.2902
X-21.699Y-31.0795Z-3.2891
X-21.7095Y-31.0691Z-3.289
X-21.8155Y-30.963Z-3.2854
X-21.9216Y-30.857Z-3.2783
X-22.0277Y-30.7509Z-3.268
X-22.1337Y-30.6448Z-3.2543
X-22.2398Y-30.5388Z-3.2373
X-22.3459Y-30.4327Z-3.217
X-22.4519Y-30.3266Z-3.1932
X-22.558Y-30.2206Z-3.166
X-22.6641Y-30.1145Z-3.1351
X-22.7701Y-30.0084Z-3.101
X-22.9823Y-29.7963Z-3.0297
X-23.1944Y-29.5842Z-2.9606
X-23.4065Y-29.372Z-2.8939
X-23.6187Y-29.1599Z-2.8294
X-23.8308Y-28.9478Z-2.7678
X-24.0429Y-28.7356Z-2.7088
X-24.255Y-28.5235Z-2.6522
X-24.4672Y-28.3114Z-2.5981
X-24.6793Y-28.0992Z-2.5463
X-24.8914Y-27.8871Z-2.4963
X-25.1036Y-27.675Z-2.4483
X-25.5278Y-27.2507Z-2.3565
X-25.9521Y-26.8264Z-2.2687
X-26.3764Y-26.4022Z-2.1814
X-26.8006Y-25.9779Z-2.0924
X-27.0128Y-25.7658Z-2.0461
X-27.2249Y-25.5537Z-1.9979
X-27.437Y-25.3415Z-1.9473
X-27.6492Y-25.1294Z-1.8945
X-27.8613Y-24.9173Z-1.8395
X-28.0734Y-24.7051Z-1.7818
X-28.2856Y-24.493Z-1.7212
X-28.4977Y-24.2809Z-1.6578
X-28.7098Y-24.0687Z-1.5916
X-28.922Y-23.8566Z-1.5223
X-29.3462Y-23.4323Z-1.3826
X-29.5583Y-23.2202Z-1.3183
X-29.6644Y-23.1141Z-1.2895
X-29.7705Y-23.0081Z-1.2634
X-29.8765Y-22.902Z-1.2405
X-29.9826Y-22.7959Z-1.221
X-30.1947Y-22.5838Z-1.1863
X-30.3748Y-22.4037Z-1.1613
X-30.5549Y-22.2236Z-1.1408
X-30.735Y-22.0435Z-1.125
X-30.9171Y-21.8614Z-1.1133
X-30.9174Y-21.8176Z-1.113
X-30.9179Y-21.7194Z-1.1132
X-30.7179Y-21.9193Z-1.1224
X-30.52Y-22.1173Z-1.1367
X-30.3221Y-22.3152Z-1.1566
X-30.1241Y-22.5132Z-1.1817
X-29.912Y-22.7253Z-1.2139
X-29.8059Y-22.8314Z-1.2338
X-29.6999Y-22.9374Z-1.2566
X-29.4877Y-23.1496Z-1.3113
X-29.2756Y-23.3617Z-1.3746
X-28.8513Y-23.786Z-1.5132
X-28.4271Y-24.2102Z-1.6488
X-28.2149Y-24.4224Z-1.7127
X-28.0028Y-24.6345Z-1.7739
X-27.7907Y-24.8466Z-1.8324
X-27.5785Y-25.0588Z-1.8883
X-27.3664Y-25.2709Z-1.9418
X-27.1543Y-25.483Z-1.993
X-26.9421Y-25.6952Z-2.0424
X-26.73Y-25.9073Z-2.0892
X-26.3057Y-26.3315Z-2.1807
X-25.8815Y-26.7558Z-2.2698
X-25.4572Y-27.1801Z-2.3597
X-25.0329Y-27.6043Z-2.4535
X-24.6087Y-28.0286Z-2.5532
X-24.3965Y-28.2407Z-2.6063
X-24.1844Y-28.4529Z-2.6616
X-23.9723Y-28.665Z-2.719
X-23.7602Y-28.8771Z-2.779
X-23.548Y-29.0893Z-2.8418
X-23.3359Y-29.3014Z-2.9067
X-23.1238Y-29.5135Z-2.9742
X-22.9116Y-29.7257Z-3.0443
X-22.6995Y-29.9378Z-3.1162
X-22.5934Y-30.0439Z-3.1502
X-22.4874Y-30.1499Z-3.1787
X-22.3813Y-30.256Z-3.2035
X-22.2752Y-30.3621Z-3.2249
X-22.1692Y-30.4681Z-3.2431
X-22.0631Y-30.5742Z-3.2579
X-21.957Y-30.6803Z-3.2694
X-21.851Y-30.7863Z-3.2776
X-21.7449Y-30.8924Z-3.2825
X-21.6388Y-30.9985Z-3.2839
X-21.5593Y-31.078Z-3.2829
X-21.4382Y-31.0766Z-3.2728
X-21.4197Y-31.0763Z-3.271
X-21.5682Y-30.9278Z-3.2776
X-21.6743Y-30.8218Z-3.2782
X-21.7803Y-30.7157Z-3.2754
X-21.8864Y-30.6096Z-3.2694
X-21.9925Y-30.5036Z-3.2601
X-22.0985Y-30.3975Z-3.2475
X-22.2046Y-30.2914Z-3.2316
X-22.3107Y-30.1854Z-3.2124
X-22.4167Y-30.0793Z-3.1899
X-22.5228Y-29.9732Z-3.1617
X-22.6289Y-29.8672Z-3.129
X-22.841Y-29.655Z-3.0576
X-23.0531Y-29.4429Z-2.9871
X-23.2653Y-29.2308Z-2.9187
X-23.4774Y-29.0186Z-2.8527
X-23.6895Y-28.8065Z-2.7892
X-23.9017Y-28.5944Z-2.7283
X-24.1138Y-28.3822Z-2.6699
X-24.3259Y-28.1701Z-2.6142
X-24.5381Y-27.958Z-2.5605
X-24.7502Y-27.7458Z-2.5085
X-24.9623Y-27.5337Z-2.4587
X-25.3866Y-27.1094Z-2.3627
X-25.8108Y-26.6852Z-2.2708
X-26.2351Y-26.2609Z-2.1799
X-26.6594Y-25.8367Z-2.0862
X-27.0836Y-25.4124Z-1.988
X-27.2958Y-25.2003Z-1.9362
X-27.5079Y-24.9881Z-1.8819
X-27.72Y-24.776Z-1.8255
X-27.9322Y-24.5639Z-1.7665
X-28.1443Y-24.3517Z-1.7048
X-28.3564Y-24.1396Z-1.6407
X-28.7807Y-23.7153Z-1.505
X-29.205Y-23.2911Z-1.3676
X-29.4171Y-23.0789Z-1.305
X-29.5232Y-22.9729Z-1.2768
X-29.6292Y-22.8668Z-1.2511
X-29.7353Y-22.7607Z-1.2285
X-29.8414Y-22.6547Z-1.2088
X-29.9474Y-22.5486Z-1.1921
X-30.0535Y-22.4425Z-1.1778
X-30.2656Y-22.2304Z-1.1533
X-30.4777Y-22.0183Z-1.1347
X-30.6899Y-21.8061Z-1.1223
X-30.902Y-21.594Z-1.116
X-30.9186Y-21.5775Z-1.1157
X-30.9192Y-21.4356Z-1.1211
X-30.8314Y-21.5234
X-30.6192Y-21.7355Z-1.1254
X-30.4071Y-21.9476Z-1.1358
X-30.195Y-22.1598Z-1.1523
X-29.9829Y-22.3719Z-1.1747
X-29.8768Y-22.478Z-1.1881
X-29.7707Y-22.584Z-1.205
X-29.6647Y-22.6901Z-1.2249
X-29.5586Y-22.7962Z-1.2474
X-29.4525Y-22.9022Z-1.2728
X-29.3465Y-23.0083Z-1.3003
X-29.1343Y-23.2204Z-1.3619
X-28.7101Y-23.6447Z-1.4977
X-28.2858Y-24.069Z-1.6332
X-28.0737Y-24.2811Z-1.6976
X-27.8615Y-24.4932Z-1.7597
X-27.6494Y-24.7054Z-1.8192
X-27.4373Y-24.9175Z-1.8763
X-27.013Y-25.3418Z-1.984
X-26.5887Y-25.766Z-2.0839
X-26.1645Y-26.1903Z-2.179
X-25.7402Y-26.6145Z-2.2718
X-25.3159Y-27.0388Z-2.3658
X-24.8917Y-27.4631Z-2.4632
X-24.4674Y-27.8873Z-2.5667
X-24.2553Y-28.0995Z-2.6213
X-24.0432Y-28.3116Z-2.6783
X-23.831Y-28.5237Z-2.7373
X-23.6189Y-28.7359Z-2.799
X-23.4068Y-28.948Z-2.8634
X-23.1946Y-29.1601Z-2.9301
X-22.9825Y-29.3723Z-2.9989
X-22.7704Y-29.5844Z-3.0695
X-22.5582Y-29.7965Z-3.1392
X-22.4522Y-29.9026Z-3.1709
X-22.3461Y-30.0087Z-3.1988
X-22.2931Y-30.0617Z-3.2104
X-22.24Y-30.1147Z-3.2198
X-22.134Y-30.2208Z-3.2368
X-22.0279Y-30.3269Z-3.2504
X-21.9218Y-30.4329Z-3.2609
X-21.8158Y-30.539Z-3.2681
X-21.7097Y-30.6451Z-3.272
X-21.6036Y-30.7511Z-3.2725
X-21.4976Y-30.8572Z-3.2697
X-21.39Y-30.9648Z-3.2634
X-21.2804Y-31.0744Z-3.2532
X-21.1853Y-31.0731Z-3.2379
X-21.1411Y-31.0724Z-3.2298
X-21.285Y-30.9285Z-3.2484
X-21.4269Y-30.7866Z-3.2605
X-21.533Y-30.6805Z-3.2654
X-21.6391Y-30.5744Z-3.267
X-21.7451Y-30.4684Z-3.2653
X-21.8512Y-30.3623Z-3.2603
X-21.9573Y-30.2562Z-3.2521
X-22.0633Y-30.1502Z-3.2406
X-22.1694Y-30.0441Z-3.2258
X-22.2755Y-29.938Z-3.2044
X-22.3815Y-29.832Z-3.1778
X-22.4876Y-29.7259Z-3.1471
X-22.6997Y-29.5138Z-3.079
X-23.124Y-29.0895Z-2.9399
X-23.3361Y-28.8774Z-2.8729
X-23.5483Y-28.6652Z-2.8081
X-23.7604Y-28.4531Z-2.7456
X-23.9725Y-28.241Z-2.686
X-24.3968Y-27.8167Z-2.573
X-24.6089Y-27.6046Z-2.5193
X-24.8211Y-27.3924Z-2.4678
X-25.2453Y-26.9682Z-2.3682
X-25.6696Y-26.5439Z-2.2727
X-26.0938Y-26.1197Z-2.1781
X-26.5181Y-25.6954Z-2.0811
X-26.7302Y-25.4833Z-2.0317
X-26.9424Y-25.2711Z-1.9801
X-27.3666Y-24.8469Z-1.8708
X-27.5788Y-24.6347Z-1.8132
X-27.7909Y-24.4226Z-1.7532
X-28.003Y-24.2105Z-1.6909
X-28.2152Y-23.9983Z-1.6264
X-28.6394Y-23.5741Z-1.4915
X-28.8516Y-23.3619Z-1.4234
X-29.0637Y-23.1498Z-1.3574
X-29.2758Y-22.9377Z-1.2967
X-29.3819Y-22.8316Z-1.2694
X-29.488Y-22.7255Z-1.2443
X-29.594Y-22.6195Z-1.222
X-29.7001Y-22.5134Z-1.2022
X-29.8062Y-22.4073Z-1.1855
X-29.9122Y-22.3013Z-1.1716
X-30.1244Y-22.0891Z-1.1517
X-30.3365Y-21.877Z-1.1373
X-30.5486Y-21.6649Z-1.129
X-30.7607Y-21.4527Z-1.1267
X-30.9199Y-21.2936Z-1.1291
X-30.9206Y-21.1853Z-1.137
X-30.9208Y-21.1514Z-1.1397
X-30.6901Y-21.3821Z-1.1329
X-30.478Y-21.5943Z-1.1332
X-30.2659Y-21.8064Z-1.1395
X-30.0537Y-22.0185Z-1.1518
X-29.9477Y-22.1246Z-1.1599
X-29.8416Y-22.2306Z-1.1703
X-29.7355Y-22.3367Z-1.1841
X-29.6295Y-22.4428Z-1.2007
X-29.5234Y-22.5488Z-1.2201
X-29.4173Y-22.6549Z-1.2423
X-29.3113Y-22.761Z-1.2672
X-29.2052Y-22.867Z-1.2941
X-28.9931Y-23.0792Z-1.354
X-28.7809Y-23.2913Z-1.4189
X-28.5688Y-23.5034Z-1.4866
X-28.1445Y-23.9277Z-1.6204
X-27.7203Y-24.352Z-1.7476
X-27.5081Y-24.5641Z-1.8079
X-27.296Y-24.7762Z-1.8659
X-26.8717Y-25.2005Z-1.9761
X-26.6596Y-25.4126Z-2.0283
X-26.4475Y-25.6248Z-2.0781
X-26.0232Y-26.049Z-2.1774
X-25.5989Y-26.4733Z-2.2735
X-25.1747Y-26.8976Z-2.3712
X-24.7504Y-27.3218Z-2.4718
X-24.3262Y-27.7461Z-2.5786
X-24.114Y-27.9582Z-2.6346
X-23.9019Y-28.1703Z-2.6928
X-23.6898Y-28.3825Z-2.7531
X-23.4776Y-28.5946Z-2.816
X-23.2655Y-28.8067Z-2.8812
X-23.0534Y-29.0189Z-2.9486
X-22.6291Y-29.4431Z-3.0868
X-22.417Y-29.6553Z-3.1527
X-22.3109Y-29.7613Z-3.1822
X-22.2048Y-29.8674Z-3.2081
X-22.0988Y-29.9735Z-3.2287
X-21.9927Y-30.0795Z-3.2432
X-21.8866Y-30.1856Z-3.2524
X-21.7806Y-30.2917Z-3.2584
X-21.6745Y-30.3977Z-3.2612
X-21.5684Y-30.5038Z-3.2608
X-21.4624Y-30.6099Z-3.257
X-21.3563Y-30.7159Z-3.2498
X-21.2682Y-30.804Z-3.2413
X-21.1801Y-30.8921Z-3.2303
X-21.092Y-30.9802Z-3.2168
X-21.002Y-31.0702Z-3.2004
X-20.9324Y-31.0692Z-3.1834
X-20.8626Y-31.0684Z-3.1651
X-20.9698Y-30.9611Z-3.1889
X-21.0751Y-30.8559Z-3.2089
X-21.1804Y-30.7506Z-3.225
X-21.2857Y-30.6453Z-3.2377
X-21.3917Y-30.5392Z-3.2471
X-21.4978Y-30.4332Z-3.2531
X-21.6039Y-30.3271Z-3.2558
X-21.7099Y-30.221Z-3.2552
X-21.816Y-30.115Z-3.2513
X-21.9221Y-30.0089Z-3.2435
X-22.0281Y-29.9028Z-3.2292
X-22.1342Y-29.7968Z-3.2092
X-22.2403Y-29.6907Z-3.1844
X-22.3463Y-29.5846Z-3.1562
X-22.5585Y-29.3725Z-3.0924
X-22.9827Y-28.9482Z-2.956
X-23.407Y-28.524Z-2.8235
X-23.6191Y-28.3118Z-2.7601
X-23.8313Y-28.0997Z-2.6994
X-24.2555Y-27.6754Z-2.5838
X-24.6798Y-27.2512Z-2.4758
X-25.1041Y-26.8269Z-2.3732
X-25.5283Y-26.4027Z-2.2744
X-25.9526Y-25.9784Z-2.1764
X-26.3768Y-25.5541Z-2.0761
X-26.8011Y-25.1299Z-1.972
X-27.0132Y-24.9177Z-1.9176
X-27.2254Y-24.7056Z-1.8612
X-27.4375Y-24.4935Z-1.8027
X-27.6496Y-24.2813Z-1.7422
X-28.0739Y-23.8571Z-1.6151
X-28.4982Y-23.4328Z-1.4819
X-28.7103Y-23.2207Z-1.4154
X-28.9224Y-23.0085Z-1.3516
X-29.1346Y-22.7964Z-1.2927
X-29.3467Y-22.5843Z-1.242
X-29.4528Y-22.4782Z-1.2202
X-29.5588Y-22.3721Z-1.2011
X-29.6649Y-22.2661Z-1.184
X-29.771Y-22.16Z-1.1702
X-29.877Y-22.0539Z-1.1596
X-29.9831Y-21.9479Z-1.1526
X-30.1952Y-21.7358Z-1.1425
X-30.4074Y-21.5236Z-1.1382
X-30.6195Y-21.3115Z-1.14
X-30.7696Y-21.1613Z-1.1449
X-30.9218Y-21.0092Z-1.1532
X-30.9223Y-20.9324Z-1.1615
X-30.9227Y-20.867Z-1.1694
X-30.7348Y-21.0549Z-1.1559
X-30.5489Y-21.2409Z-1.1475
X-30.3367Y-21.453Z-1.1436
X-30.1246Y-21.6651Z-1.1459
X-29.9125Y-21.8773Z-1.1535
X-29.8064Y-21.9833Z-1.161
X-29.7003Y-22.0894Z-1.1716
X-29.5943Y-22.1955Z-1.1851
X-29.4882Y-22.3015Z-1.2014
X-29.3821Y-22.4076Z-1.2203
X-29.2761Y-22.5136Z-1.2419
X-29.17Y-22.6197Z-1.2661
X-29.0639Y-22.7258Z-1.2923
X-28.8518Y-22.9379Z-1.3501
X-28.6397Y-23.15Z-1.413
X-28.4275Y-23.3622Z-1.4787
X-28.0033Y-23.7864Z-1.6108
X-27.579Y-24.2107Z-1.7377
X-27.1547Y-24.635Z-1.8571
X-26.7305Y-25.0592Z-1.969
X-26.3062Y-25.4835Z-2.0745
X-25.882Y-25.9078Z-2.176
X-25.4577Y-26.332Z-2.2749
X-25.0334Y-26.7563Z-2.3758
X-24.6092Y-27.1806Z-2.4794
X-24.1849Y-27.6048Z-2.5888
X-23.7606Y-28.0291Z-2.7051
X-23.5485Y-28.2412Z-2.7662
X-23.3364Y-28.4533Z-2.8297
X-22.9121Y-28.8776Z-2.9621
X-22.4878Y-29.3019Z-3.096
X-22.2757Y-29.514Z-3.1575
X-22.1696Y-29.6201Z-3.1846
X-22.0636Y-29.7261Z-3.2078
X-21.9575Y-29.8322Z-3.2266
X-21.8514Y-29.9383Z-3.2408
X-21.7454Y-30.0443Z-3.2489
X-21.6393Y-30.1504Z-3.2506
X-21.5332Y-30.2565Z-3.249
X-21.4272Y-30.3625Z-3.2441
X-21.3211Y-30.4686Z-3.2359
X-21.215Y-30.5747Z-3.2243
X-21.0925Y-30.6973Z-3.2065
X-20.9699Y-30.8198Z-3.1839
X-20.8473Y-30.9424Z-3.1565
X-20.7227Y-31.067Z-3.1262
X-20.5825Y-31.066Z-3.0859
X-20.8644Y-30.784Z-3.1555
X-21.0044Y-30.644Z-3.1856
X-21.1444Y-30.504Z-3.2094
X-21.2505Y-30.398Z-3.2232
X-21.3565Y-30.2919Z-3.2337
X-21.4626Y-30.1858Z-3.241
X-21.5687Y-30.0798Z-3.2447
X-21.6747Y-29.9737Z-3.2434
X-21.7278Y-29.9207Z-3.2404
X-21.7808Y-29.8676Z-3.2353
X-21.8869Y-29.7616Z-3.2224
X-21.9929Y-29.6555Z-3.2046
X-22.099Y-29.5494Z-3.1824
X-22.2051Y-29.4434Z-3.1567
X-22.4172Y-29.2312Z-3.0978
X-22.6293Y-29.0191Z-3.0329
X-22.8415Y-28.807Z-2.9661
X-23.2657Y-28.3827Z-2.8351
X-23.4779Y-28.1706Z-2.7715
X-23.69Y-27.9585Z-2.7102
X-24.1143Y-27.5342Z-2.593
X-24.5385Y-27.1099Z-2.4824
X-24.9628Y-26.6857Z-2.3772
X-25.3871Y-26.2614Z-2.2755
X-25.8113Y-25.8371Z-2.1754
X-26.2356Y-25.4129Z-2.0729
X-26.6598Y-24.9886Z-1.9662
X-27.0841Y-24.5643Z-1.8532
X-27.5084Y-24.1401Z-1.7334
X-27.9326Y-23.7158Z-1.6069
X-28.3569Y-23.2915Z-1.4761
X-28.569Y-23.0794Z-1.4116
X-28.7812Y-22.8673Z-1.35
X-28.9933Y-22.6551Z-1.2929
X-29.0994Y-22.5491Z-1.2675
X-29.2054Y-22.443Z-1.244
X-29.3115Y-22.337Z-1.2228
X-29.4176Y-22.2309Z-1.2042
X-29.5236Y-22.1248Z-1.188
X-29.6297Y-22.0188Z-1.1745
X-29.7358Y-21.9127Z-1.164
X-29.8418Y-21.8066Z-1.1566
X-29.9479Y-21.7006Z-1.1517
X-30.054Y-21.5945Z-1.1498
X-30.2661Y-21.3824Z-1.1497
X-30.4782Y-21.1702Z-1.1557
X-30.6999Y-20.9486Z-1.1684
X-30.9236Y-20.7249Z-1.1882
X-30.9239Y-20.6795Z-1.1949
X-30.9245Y-20.5827Z-1.21
X-30.7938Y-20.7134Z-1.1949
X-30.665Y-20.8421Z-1.1824
X-30.5363Y-20.9709Z-1.1724
X-30.4076Y-21.0996Z-1.1646
X-30.1955Y-21.3117Z-1.1567
X-29.9833Y-21.5239Z-1.1546
X-29.8773Y-21.6299Z-1.1557
X-29.7712Y-21.736Z-1.1605
X-29.6651Y-21.8421Z-1.1679
X-29.5591Y-21.9481Z-1.1783
X-29.453Y-22.0542Z-1.1916
X-29.3469Y-22.1603Z-1.2073
X-29.2409Y-22.2663Z-1.2256
X-29.1348Y-22.3724Z-1.2465
X-28.9227Y-22.5845Z-1.2947
X-28.7105Y-22.7967Z-1.3506
X-28.4984Y-23.0088Z-1.4112
X-28.2863Y-23.2209Z-1.4747
X-27.862Y-23.6452Z-1.6042
X-27.4377Y-24.0694Z-1.7301
X-27.0135Y-24.4937Z-1.85
X-26.5892Y-24.918Z-1.9633
X-26.165Y-25.3422Z-2.0709
X-25.3164Y-26.1908Z-2.2762
X-24.8922Y-26.615Z-2.3788
X-24.4679Y-27.0393Z-2.4852
X-24.0436Y-27.4636Z-2.5971
X-23.6194Y-27.8878Z-2.7149
X-23.4072Y-28.1Z-2.7763
X-23.1951Y-28.3121Z-2.8397
X-22.7708Y-28.7363Z-2.9698
X-22.5587Y-28.9485Z-3.0347
X-22.3466Y-29.1606Z-3.0975
X-22.2405Y-29.2667Z-3.1268
X-22.1344Y-29.3727Z-3.154
X-22.0284Y-29.4788Z-3.1783
X-21.9223Y-29.5849Z-3.1991
X-21.8162Y-29.6909Z-3.2159
X-21.7102Y-29.797Z-3.228
X-21.6041Y-29.9031Z-3.2351
X-21.498Y-30.0091Z-3.2361
X-21.445Y-30.0622Z-3.2348
X-21.392Y-30.1152Z-3.2313
X-21.2859Y-30.2213Z-3.222
X-21.1799Y-30.3273Z-3.2092
X-21.0738Y-30.4334Z-3.1931
X-20.9951Y-30.5121Z-3.1787
X-20.9164Y-30.5908Z-3.1623
X-20.759Y-30.7482Z-3.1252
X-20.4422Y-31.065Z-3.0457
X-20.3019Y-31.0641Z-3.0064
X-20.6535Y-30.7124Z-3.0939
X-20.8283Y-30.5376Z-3.137
X-20.9157Y-30.4502Z-3.1571
X-21.0032Y-30.3628Z-3.1752
X-21.1092Y-30.2567Z-3.1938
X-21.2153Y-30.1506Z-3.2089
X-21.3214Y-30.0446Z-3.2205
X-21.4274Y-29.9385Z-3.2258
X-21.5335Y-29.8324Z-3.2247
X-21.6395Y-29.7264Z-3.2185
X-21.7456Y-29.6203Z-3.2076
X-21.8517Y-29.5142Z-3.1921
X-21.9577Y-29.4082Z-3.1724
X-22.0638Y-29.3021Z-3.1495
X-22.1699Y-29.196Z-3.1239
X-22.2759Y-29.09Z-3.0957
X-22.4881Y-28.8778Z-3.0353
X-22.7002Y-28.6657Z-2.9716
X-23.1245Y-28.2415Z-2.8429
X-23.5487Y-27.8172Z-2.7184
X-23.973Y-27.3929Z-2.6003
X-24.3973Y-26.9687Z-2.488
X-24.8215Y-26.5444Z-2.381
X-25.2458Y-26.1201Z-2.2769
X-26.0943Y-25.2716Z-2.0688
X-26.5186Y-24.8473Z-1.9606
X-26.9429Y-24.4231Z-1.847
X-27.3671Y-23.9988Z-1.7271
X-27.7914Y-23.5745Z-1.6018
X-28.2156Y-23.1503Z-1.4741
X-28.4278Y-22.9382Z-1.4116
X-28.6399Y-22.726Z-1.3522
X-28.852Y-22.5139Z-1.2975
X-29.0642Y-22.3018Z-1.2503
X-29.1702Y-22.1957Z-1.2298
X-29.2763Y-22.0896Z-1.2117
X-29.3824Y-21.9836Z-1.196
X-29.4884Y-21.8775Z-1.1829
X-29.5945Y-21.7714Z-1.1726
X-29.7006Y-21.6654Z-1.1653
X-29.8066Y-21.5593Z-1.1609
X-29.9127Y-21.4532Z-1.1594
X-30.1248Y-21.2411Z-1.164
X-30.337Y-21.029Z-1.174
X-30.4836Y-20.8823Z-1.1846
X-30.6302Y-20.7357Z-1.198
X-30.7769Y-20.589Z-1.2146
X-30.9255Y-20.4404Z-1.2344
X-30.9256Y-20.4266Z-1.2369
X-30.9266Y-20.2981Z-1.2618
X-30.76Y-20.4646Z-1.2364
X-30.5955Y-20.6292Z-1.2151
X-30.4309Y-20.7938Z-1.1978
X-30.2663Y-20.9583Z-1.1841
X-30.0542Y-21.1705Z-1.1718
X-29.9481Y-21.2765Z-1.1676
X-29.8421Y-21.3826Z-1.1659
X-29.736Y-21.4887Z-1.1673
X-29.6299Y-21.5947Z-1.1722
X-29.5239Y-21.7008Z-1.1794
X-29.4178Y-21.8069Z-1.1896
X-29.3117Y-21.9129Z-1.2024
X-29.2057Y-22.019Z-1.2176
X-29.0996Y-22.1251Z-1.2352
X-28.9935Y-22.2311Z-1.2552
X-28.8875Y-22.3372Z-1.2772
X-28.7814Y-22.4433Z-1.3013
X-28.5693Y-22.6554Z-1.3545
X-28.3571Y-22.8675Z-1.4129
X-28.145Y-23.0797Z-1.4747
X-27.7207Y-23.5039Z-1.6009
X-27.2965Y-23.9282Z-1.7249
X-26.8722Y-24.3524Z-1.8447
X-26.448Y-24.7767Z-1.9588
X-26.0237Y-25.201Z-2.0677
X-25.5994Y-25.6252Z-2.1735
X-25.1752Y-26.0495Z-2.2771
X-24.7509Y-26.4738Z-2.3825
X-24.3266Y-26.898Z-2.4904
X-23.9024Y-27.3223Z-2.6032
X-23.4781Y-27.7466Z-2.7215
X-23.0538Y-28.1708Z-2.8454
X-22.6296Y-28.5951Z-2.9721
X-22.4174Y-28.8072Z-3.0344
X-22.2053Y-29.0193Z-3.0925
X-22.0992Y-29.1254Z-3.119
X-21.9932Y-29.2315Z-3.1434
X-21.8871Y-29.3375Z-3.1651
X-21.7811Y-29.4436Z-3.1834
X-21.675Y-29.5497Z-3.1977
X-21.5689Y-29.6557Z-3.2072
X-21.4629Y-29.7618Z-3.2125
X-21.3568Y-29.8679
X-21.2507Y-29.9739Z-3.2064
X-21.1977Y-30.027Z-3.2014
X-21.1447Y-30.08Z-3.1943
X-21.0386Y-30.1861Z-3.177
X-20.9325Y-30.2921Z-3.1559
X-20.7403Y-30.4844Z-3.1106
X-20.548Y-30.6766Z-3.0627
X-20.1615Y-31.0631Z-2.9682
X-20.0212Y-31.0622Z-2.931
X-20.4425Y-30.6409Z-3.0316
X-20.8619Y-30.2215Z-3.1352
X-20.968Y-30.1154Z-3.1585
X-21.074Y-30.0094Z-3.1777
X-21.1801Y-29.9033Z-3.1905
X-21.2862Y-29.7972Z-3.1969
X-21.3922Y-29.6912Z-3.1984
X-21.4983Y-29.5851Z-3.1944
X-21.6044Y-29.479Z-3.1858
X-21.7104Y-29.373Z-3.1728
X-21.8165Y-29.2669Z-3.1558
X-21.9226Y-29.1609Z-3.1359
X-22.0286Y-29.0548Z-3.1129
X-22.1347Y-28.9487Z-3.0874
X-22.3468Y-28.7366Z-3.0316
X-22.5589Y-28.5245Z-2.9714
X-23.4075Y-27.6759Z-2.7239
X-23.8317Y-27.2517Z-2.6057
X-24.256Y-26.8274Z-2.4921
X-24.6803Y-26.4031Z-2.3834
X-25.1045Y-25.9789Z-2.2776
X-25.9531Y-25.1303Z-2.0667
X-26.3773Y-24.7061Z-1.9571
X-26.8016Y-24.2818Z-1.8425
X-27.2259Y-23.8575Z-1.7231
X-27.6501Y-23.4333Z-1.5997
X-28.0744Y-23.009Z-1.4758
X-28.2865Y-22.7969Z-1.4154
X-28.4986Y-22.5848Z-1.3584
X-28.7108Y-22.3726Z-1.3064
X-28.9229Y-22.1605Z-1.2608
X-29.029Y-22.0544Z-1.2411
X-29.135Y-21.9484Z-1.2237
X-29.2411Y-21.8423Z-1.2087
X-29.3472Y-21.7362Z-1.1962
X-29.4532Y-21.6302Z-1.1864
X-29.5593Y-21.5241Z-1.1794
X-29.6654Y-21.418Z-1.1752
X-29.7714Y-21.312Z-1.1739
X-29.8775Y-21.2059Z-1.1754
X-29.9836Y-21.0998Z-1.1805
X-30.1957Y-20.8877Z-1.1949
X-30.3782Y-20.7052Z-1.212
X-30.5607Y-20.5227Z-1.2337
X-30.7432Y-20.3402Z-1.2603
X-30.9277Y-20.1557Z-1.2921
X-30.9285Y-20.0472Z-1.3172
X-30.9288Y-20.0133Z-1.3253
X-30.7264Y-20.2158Z-1.2864
X-30.5259Y-20.4162Z-1.2539
X-30.3255Y-20.6166Z-1.2272
X-30.1251Y-20.8171Z-1.2062
X-29.9129Y-21.0292Z-1.1893
X-29.8069Y-21.1353Z-1.185
X-29.7008Y-21.2413Z-1.1834
X-29.5947Y-21.3474Z-1.1848
X-29.4887Y-21.4535Z-1.1888
X-29.3826Y-21.5595Z-1.1955
X-29.2765Y-21.6656Z-1.2053
X-29.1705Y-21.7717Z-1.2175
X-29.0644Y-21.8777Z-1.2319
X-28.9583Y-21.9838Z-1.2483
X-28.8523Y-22.0899Z-1.2678
X-28.7462Y-22.1959Z-1.289
X-28.6401Y-22.302Z-1.3121
X-28.428Y-22.5141Z-1.3625
X-28.2159Y-22.7263Z-1.4181
X-28.0037Y-22.9384Z-1.4774
X-27.5795Y-23.3627Z-1.6001
X-27.1552Y-23.7869Z-1.722
X-26.731Y-24.2112Z-1.841
X-26.3067Y-24.6354Z-1.9554
X-25.8824Y-25.0597Z-2.0653
X-25.0339Y-25.9082Z-2.278
X-24.6096Y-26.3325Z-2.3846
X-24.1854Y-26.7568Z-2.4938
X-23.7611Y-27.181Z-2.6075
X-23.3368Y-27.6053Z-2.7255
X-22.4883Y-28.4538Z-2.9696
X-22.2762Y-28.666Z-3.028
X-22.0641Y-28.8781Z-3.0813
X-21.958Y-28.9842Z-3.1054
X-21.8519Y-29.0902Z-3.1267
X-21.7459Y-29.1963Z-3.1454
X-21.6398Y-29.3024Z-3.1612
X-21.5337Y-29.4084Z-3.1724
X-21.4277Y-29.5145Z-3.1794
X-21.3216Y-29.6205Z-3.1821
X-21.2155Y-29.7266Z-3.1796
X-21.1095Y-29.8327Z-3.1718
X-21.0034Y-29.9387Z-3.1585
X-20.8973Y-30.0448Z-3.1389
X-20.7913Y-30.1509Z-3.1135
X-20.367Y-30.5751Z-3.0083
X-19.9427Y-30.9994Z-2.9087
X-19.8808Y-31.0613Z-2.8947
X-19.7405Y-31.0604Z-2.8595
X-19.8721Y-30.9288Z-2.8884
X-20.2964Y-30.5045Z-2.9864
X-20.7206Y-30.0802Z-3.091
X-20.8267Y-29.9742Z-3.1167
X-20.9328Y-29.8681Z-3.1373
X-21.0388Y-29.7621Z-3.1519
X-21.1449Y-29.656Z-3.161
X-21.251Y-29.5499Z-3.1649
X-21.357Y-29.4439Z-3.1638
X-21.4631Y-29.3378Z-3.1578
X-21.5692Y-29.2317Z-3.1476
X-21.6752Y-29.1257Z-3.1339
X-21.7813Y-29.0196Z-3.1165
X-21.8874Y-28.9135Z-3.0964
X-21.9934Y-28.8075Z-3.074
X-22.2056Y-28.5953Z-3.0231
X-22.4177Y-28.3832Z-2.9666
X-22.8419Y-27.9589Z-2.847
X-23.2662Y-27.5347Z-2.7266
X-23.6905Y-27.1104Z-2.6091
X-24.1147Y-26.6861Z-2.4955
X-24.539Y-26.2619Z-2.3862
X-24.9633Y-25.8376Z-2.2785
X-25.8118Y-24.9891Z-2.0642
X-26.2361Y-24.5648Z-1.9539
X-26.6603Y-24.1406Z-1.8397
X-27.0846Y-23.7163Z-1.7214
X-27.5089Y-23.292Z-1.6004
X-27.9331Y-22.8678Z-1.4804
X-28.1453Y-22.6556Z-1.4224
X-28.3574Y-22.4435Z-1.368
X-28.5695Y-22.2314Z-1.3184
X-28.7816Y-22.0192Z-1.2753
X-28.8877Y-21.9132Z-1.2566
X-28.9938Y-21.8071Z-1.2402
X-29.0998Y-21.701Z-1.2262
X-29.2059Y-21.595Z-1.2146
X-29.312Y-21.4889Z-1.2052
X-29.418Y-21.3828Z-1.1987
X-29.5241Y-21.2768Z-1.195
X-29.6302Y-21.1707Z-1.1939
X-29.7362Y-21.0646Z-1.1956
X-29.8423Y-20.9586Z-1.2001
X-29.9484Y-20.8525Z-1.2076
X-30.0544Y-20.7464Z-1.218
X-30.2666Y-20.5343Z-1.2427
X-30.4787Y-20.3222Z-1.2737
X-30.6908Y-20.11Z-1.3112
X-30.903Y-19.8979Z-1.3554
X-30.9301Y-19.8707Z-1.3617
X-30.9308Y-19.7943Z-1.3821
X-30.9313Y-19.7283Z-1.4004
X-30.8323Y-19.8273Z-1.3768
X-30.6202Y-20.0394Z-1.3304
X-30.4081Y-20.2515Z-1.2907
X-30.1959Y-20.4637Z-1.2576
X-29.9838Y-20.6758Z-1.2307
X-29.8777Y-20.7819Z-1.2194
X-29.7717Y-20.8879Z-1.2116
X-29.6656Y-20.994Z-1.2068
X-29.5595Y-21.1001Z-1.2051
X-29.4535Y-21.2061Z-1.2061
X-29.3474Y-21.3122Z-1.2097
X-29.2413Y-21.4183Z-1.2161
X-29.1353Y-21.5243Z-1.2252
X-29.0292Y-21.6304Z-1.2367
X-28.9231Y-21.7365Z-1.2502
X-28.8171Y-21.8425Z-1.2663
X-28.711Y-21.9486Z-1.2845
X-28.6049Y-22.0547Z-1.3042
X-28.4989Y-22.1607Z-1.3262
X-28.2868Y-22.3729Z-1.374
X-28.0746Y-22.585Z-1.4267
X-27.8625Y-22.7971Z-1.4833
X-27.4382Y-23.2214Z-1.6019
X-27.014Y-23.6457Z-1.7219
X-26.5897Y-24.0699Z-1.8391
X-26.1654Y-24.4942Z-1.9534
X-25.7412Y-24.9184Z-2.0638
X-24.8926Y-25.767Z-2.2786
X-24.0441Y-26.6155Z-2.4962
X-23.6198Y-27.0398Z-2.61
X-23.1956Y-27.464Z-2.7269
X-22.7713Y-27.8883Z-2.8458
X-22.3471Y-28.3126Z-2.9624
X-22.1349Y-28.5247Z-3.0168
X-21.9228Y-28.7368Z-3.0652
X-21.8167Y-28.8429Z-3.0864
X-21.7107Y-28.949Z-3.1052
X-21.6046Y-29.055Z-3.1209
X-21.4985Y-29.1611Z-3.1332
X-21.3925Y-29.2672Z-3.1418
X-21.2864Y-29.3732Z-3.1463
X-21.1803Y-29.4793
X-21.0743Y-29.5854Z-3.1412
X-20.9682Y-29.6914Z-3.131
X-20.8621Y-29.7975Z-3.1152
X-20.7561Y-29.9036Z-3.0939
X-20.65Y-30.0096Z-3.0679
X-20.2257Y-30.4339Z-2.965
X-19.8015Y-30.8581Z-2.8685
X-19.6002Y-31.0595Z-2.8251
X-19.5414Y-31.059Z-2.811
X-19.4599Y-31.0585Z-2.7918
X-19.7308Y-30.7875Z-2.8488
X-20.1551Y-30.3633Z-2.9436
X-20.3672Y-30.1511Z-2.9935
X-20.5794Y-29.939Z-3.0453
X-20.6854Y-29.8329Z-3.0708
X-20.7915Y-29.7269Z-3.0925
X-20.8976Y-29.6208Z-3.1092
X-21.0036Y-29.5147Z-3.1205
X-21.1097Y-29.4087Z-3.1268
X-21.2158Y-29.3026Z-3.128
X-21.3218Y-29.1965Z-3.1252
X-21.4279Y-29.0905Z-3.1181
X-21.534Y-28.9844Z-3.107
X-21.64Y-28.8783Z-3.0927
X-21.7461Y-28.7723Z-3.0755
X-21.8522Y-28.6662Z-3.0555
X-22.0643Y-28.4541Z-3.0097
X-22.2764Y-28.2419Z-2.9575
X-22.7007Y-27.8177Z-2.8437
X-23.125Y-27.3934Z-2.7262
X-23.5492Y-26.9691Z-2.6105
X-23.9735Y-26.5449Z-2.4968
X-24.822Y-25.6963Z-2.2788
X-25.6705Y-24.8478Z-2.0633
X-26.0948Y-24.4236Z-1.9528
X-26.5191Y-23.9993Z-1.8387
X-27.3676Y-23.1508Z-1.6037
X-27.7919Y-22.7265Z-1.4874
X-28.004Y-22.5144Z-1.4326
X-28.2161Y-22.3022Z-1.3808
X-28.4283Y-22.0901Z-1.3338
X-28.5343Y-21.984Z-1.3126
X-28.6404Y-21.878Z-1.2934
X-28.8525Y-21.6658Z-1.2607
X-28.9586Y-21.5598Z-1.2476
X-29.0646Y-21.4537Z-1.2369
X-29.1707Y-21.3476Z-1.2283
X-29.2768Y-21.2416Z-1.2223
X-29.3828Y-21.1355Z-1.2191
X-29.4889Y-21.0294Z-1.2183
X-29.595Y-20.9234Z-1.2204
X-29.701Y-20.8173Z-1.2246
X-29.8071Y-20.7112Z-1.2326
X-29.9132Y-20.6052Z-1.2435
X-30.1253Y-20.393Z-1.273
X-30.3374Y-20.1809Z-1.3084
X-30.5496Y-19.9688Z-1.3503
X-30.7617Y-19.7566Z-1.3986
X-30.9325Y-19.5859Z-1.4409
X-30.9336Y-19.4435Z-1.4818
X-30.6911Y-19.686Z-1.4207
X-30.4789Y-19.8982Z-1.3708
X-30.2668Y-20.1103Z-1.3265
X-30.0547Y-20.3224Z-1.2889
X-29.9486Y-20.4285Z-1.272
X-29.8425Y-20.5345Z-1.2582
X-29.7365Y-20.6406Z-1.2472
X-29.6304Y-20.7467Z-1.2391
X-29.5243Y-20.8527Z-1.2341
X-29.4183Y-20.9588Z-1.2318
X-29.3122Y-21.0649Z-1.2321
X-29.2061Y-21.1709Z-1.2351
X-29.1001Y-21.277Z-1.2408
X-28.994Y-21.3831Z-1.249
X-28.888Y-21.4891Z-1.2595
X-28.7819Y-21.5952Z-1.2722
X-28.5698Y-21.8073Z-1.304
X-28.3576Y-22.0195Z-1.3433
X-28.1455Y-22.2316Z-1.3885
X-27.9334Y-22.4437Z-1.4384
X-27.7212Y-22.6559Z-1.4921
X-27.297Y-23.0801Z-1.6063
X-26.4484Y-23.9287Z-1.839
X-26.0242Y-24.3529Z-1.9522
X-25.5999Y-24.7772Z-2.0626
X-24.7514Y-25.6257Z-2.2791
X-23.9028Y-26.4742Z-2.4975
X-23.4786Y-26.8985Z-2.6105
X-23.0543Y-27.3228Z-2.7255
X-22.6301Y-27.747Z-2.8412
X-22.2058Y-28.1713Z-2.9511
X-21.9937Y-28.3834Z-3.0014
X-21.7815Y-28.5956Z-3.0449
X-21.6755Y-28.7016Z-3.0634
X-21.5694Y-28.8077Z-3.0793
X-21.4633Y-28.9138Z-3.0923
X-21.3573Y-29.0198Z-3.102
X-21.2512Y-29.1259Z-3.1076
X-21.1451Y-29.232Z-3.1093
X-21.0391Y-29.338Z-3.1067
X-20.933Y-29.4441Z-3.0993
X-20.8269Y-29.5502Z-3.0869
X-20.7209Y-29.6562Z-3.0698
X-20.6148Y-29.7623Z-3.0479
X-20.5087Y-29.8684Z-3.023
X-20.2966Y-30.0805Z-2.9713
X-20.0845Y-30.2926Z-2.9227
X-19.6602Y-30.7169Z-2.8293
X-19.3196Y-31.0575Z-2.7594
X-19.1794Y-31.0565Z-2.7279
X-19.5896Y-30.6463Z-2.8102
X-20.0138Y-30.222Z-2.9017
X-20.226Y-30.0099Z-2.9501
X-20.4381Y-29.7977Z-3.0011
X-20.5442Y-29.6917Z-3.0257
X-20.6502Y-29.5856Z-3.0474
X-20.7563Y-29.4795Z-3.0646
X-20.8624Y-29.3735Z-3.0777
X-20.9684Y-29.2674Z-3.086
X-21.0745Y-29.1613Z-3.0899
X-21.1806Y-29.0553Z-3.0891
X-21.2866Y-28.9492Z-3.0847
X-21.3927Y-28.8431Z-3.0769
X-21.4988Y-28.7371Z-3.0652
X-21.6048Y-28.631Z-3.0506
X-21.7109Y-28.5249Z-3.0334
X-21.923Y-28.3128Z-2.9923
X-22.1352Y-28.1007Z-2.9442
X-22.3473Y-27.8885Z-2.8923
X-22.5594Y-27.6764Z-2.8375
X-22.9837Y-27.2521Z-2.7236
X-23.408Y-26.8279Z-2.6098
X-23.8322Y-26.4036Z-2.4975
X-24.6807Y-25.5551Z-2.2792
X-25.5293Y-24.7066Z-2.0624
X-25.9535Y-24.2823Z-1.9522
X-26.3778Y-23.858Z-1.8393
X-27.2263Y-23.0095Z-1.6094
X-27.6506Y-22.5852Z-1.4976
X-27.8627Y-22.3731Z-1.4455
X-28.0749Y-22.161Z-1.3965
X-28.287Y-21.9488Z-1.3524
X-28.4991Y-21.7367Z-1.3147
X-28.7113Y-21.5246Z-1.2846
X-28.8173Y-21.4185Z-1.2724
X-28.9234Y-21.3124Z-1.2628
X-29.0295Y-21.2064Z-1.2552
X-29.1355Y-21.1003Z-1.2498
X-29.2416Y-20.9942Z-1.2474
X-29.3477Y-20.8882Z-1.2472
X-29.4537Y-20.7821Z-1.2498
X-29.5598Y-20.676Z-1.2551
X-29.6658Y-20.57Z-1.2633
X-29.7719Y-20.4639Z-1.2742
X-29.878Y-20.3578Z-1.2882
X-29.984Y-20.2518Z-1.3056
X-30.1962Y-20.0397Z-1.3456
X-30.4083Y-19.8275Z-1.3919
X-30.6204Y-19.6154Z-1.4434
X-30.9348Y-19.3011Z-1.5221
X-30.936Y-19.1586Z-1.5612
X-30.5498Y-19.5448Z-1.4661
X-30.3377Y-19.7569Z-1.4136
X-30.1255Y-19.969Z-1.3653
X-29.9134Y-20.1812Z-1.3227
X-29.8073Y-20.2872Z-1.3055
X-29.7013Y-20.3933Z-1.2914
X-29.5952Y-20.4994Z-1.2803
X-29.4892Y-20.6054Z-1.2718
X-29.3831Y-20.7115Z-1.2661
X-29.277Y-20.8175Z-1.2631
X-29.171Y-20.9236Z-1.2626
X-29.0649Y-21.0297Z-1.2647
X-28.9588Y-21.1357Z-1.2694
X-28.8528Y-21.2418Z-1.2765
X-28.7467Y-21.3479Z-1.2858
X-28.6406Y-21.4539Z-1.2975
X-28.4285Y-21.6661Z-1.3266
X-28.2164Y-21.8782Z-1.3631
X-28.0042Y-22.0903Z-1.4056
X-27.7921Y-22.3025Z-1.4528
X-27.58Y-22.5146Z-1.5037
X-27.1557Y-22.9389Z-1.6131
X-26.3072Y-23.7874Z-1.8405
X-25.8829Y-24.2117Z-1.9527
X-25.4586Y-24.6359Z-2.0628
X-24.6101Y-25.4845Z-2.2792
X-23.7616Y-26.333Z-2.4971
X-23.3373Y-26.7572Z-2.6084
X-22.9131Y-27.1815Z-2.7215
X-22.4888Y-27.6058Z-2.833
X-22.2767Y-27.8179Z-2.886
X-22.0645Y-28.03Z-2.9365
X-21.9585Y-28.1361Z-2.9604
X-21.8524Y-28.2422Z-2.9822
X-21.6403Y-28.4543Z-3.0209
X-21.5342Y-28.5604Z-3.0369
X-21.4281Y-28.6664Z-3.05
X-21.3221Y-28.7725Z-3.0604
X-21.216Y-28.8786Z-3.0673
X-21.1099Y-28.9846Z-3.0707
X-21.0039Y-29.0907Z-3.0699
X-20.8978Y-29.1968Z-3.0651
X-20.7917Y-29.3028Z-3.0561
X-20.6857Y-29.4089Z-3.0423
X-20.5796Y-29.515Z-3.0249
X-20.4735Y-29.621Z-3.0035
X-20.3675Y-29.7271Z-2.979
X-20.1553Y-29.9392Z-2.9291
X-19.9432Y-30.1514Z-2.8813
X-19.5189Y-30.5756Z-2.7912
X-19.0391Y-31.0554Z-2.6974
X-18.8989Y-31.0544Z-2.6679
X-19.1746Y-30.7787Z-2.7191
X-19.4483Y-30.505Z-2.7727
X-19.8726Y-30.0807Z-2.8607
X-20.0847Y-29.8686Z-2.9086
X-20.2968Y-29.6565Z-2.9578
X-20.4029Y-29.5504Z-2.9813
X-20.509Y-29.4443Z-3.0023
X-20.615Y-29.3383Z-3.0201
X-20.7211Y-29.2322Z-3.0344
X-20.8272Y-29.1261Z-3.0443
X-20.9332Y-29.0201Z-3.0499
X-21.0393Y-28.914Z-3.0514
X-21.1454Y-28.8079Z-3.0492
X-21.2514Y-28.7019Z-3.0438
X-21.3575Y-28.5958Z-3.0344
X-21.4636Y-28.4897Z-3.0224
X-21.5696Y-28.3837Z-3.0078
X-21.7818Y-28.1715Z-2.9716
X-21.9939Y-27.9594Z-2.9277
X-22.206Y-27.7473Z-2.8798
X-22.4182Y-27.5351Z-2.8281
X-22.8424Y-27.1109Z-2.7188
X-23.691Y-26.2623Z-2.4967
X-24.5395Y-25.4138Z-2.2792
X-25.388Y-24.5653Z-2.063
X-26.2365Y-23.7168Z-1.8415
X-27.0851Y-22.8682Z-1.6174
X-27.5093Y-22.444Z-1.5107
X-27.7215Y-22.2318Z-1.461
X-27.9336Y-22.0197Z-1.4149
X-28.1457Y-21.8076Z-1.3737
X-28.3579Y-21.5954Z-1.339
X-28.4639Y-21.4894Z-1.3243
X-28.57Y-21.3833Z-1.3116
X-28.6761Y-21.2772Z-1.3004
X-28.7821Y-21.1712Z-1.2918
X-28.8882Y-21.0651Z-1.2855
X-28.9943Y-20.959Z-1.2811
X-29.1003Y-20.853Z-1.2793
X-29.2064Y-20.7469Z-1.2801
X-29.3125Y-20.6409Z-1.2834
X-29.4185Y-20.5348Z-1.2894
X-29.5246Y-20.4287Z-1.2981
X-29.6307Y-20.3227Z-1.3097
X-29.7367Y-20.2166Z-1.3241
X-29.8428Y-20.1105Z-1.3414
X-29.9489Y-20.0045Z-1.362
X-30.0549Y-19.8984Z-1.3855
X-30.267Y-19.6863Z-1.4356
X-30.4792Y-19.4741Z-1.4888
X-30.7072Y-19.2461Z-1.5451
X-30.9372Y-19.0161Z-1.599
X-30.9381Y-18.9092Z-1.6267
X-30.9384Y-18.8737Z-1.6357
X-30.6725Y-19.1396Z-1.5751
X-30.4085Y-19.4035Z-1.5113
X-29.9843Y-19.8278Z-1.4063
X-29.8782Y-19.9338Z-1.3819
X-29.7722Y-20.0399Z-1.362
X-29.6661Y-20.146Z-1.3443
X-29.56Y-20.252Z-1.3295
X-29.454Y-20.3581Z-1.3175
X-29.3479Y-20.4642Z-1.3083
X-29.2418Y-20.5702Z-1.3018
X-29.1358Y-20.6763Z-1.2979
X-29.0297Y-20.7824Z-1.2965
X-28.9236Y-20.8884Z-1.2978
X-28.8176Y-20.9945Z-1.3013
X-28.7115Y-21.1006Z-1.3071
X-28.6054Y-21.2066Z-1.3152
X-28.4994Y-21.3127Z-1.3256
X-28.2872Y-21.5248Z-1.3521
X-28.0751Y-21.7369Z-1.3856
X-27.863Y-21.9491Z-1.4251
X-27.6508Y-22.1612Z-1.4695
X-27.4387Y-22.3733Z-1.5176
X-27.2266Y-22.5855Z-1.5689
X-27.0144Y-22.7976Z-1.6221
X-26.1659Y-23.6461Z-1.8434
X-25.3174Y-24.4947Z-2.0631
X-24.4689Y-25.3432Z-2.2791
X-23.6203Y-26.1917Z-2.4962
X-22.7718Y-27.0402Z-2.7153
X-22.3475Y-27.4645Z-2.8224
X-22.1354Y-27.6766Z-2.8723
X-21.9233Y-27.8888Z-2.9191
X-21.7111Y-28.1009Z-2.9598
X-21.499Y-28.313Z-2.9941
X-21.3929Y-28.4191Z-3.0074
X-21.2869Y-28.5252Z-3.0183
X-21.1808Y-28.6312Z-3.0264
X-21.0747Y-28.7373Z-3.0311
X-20.9687Y-28.8434Z-3.0323
X-20.8626Y-28.9494Z-3.0297
X-20.7565Y-29.0555Z-3.0232
X-20.6505Y-29.1616Z-3.0129
X-20.5444Y-29.2676Z-2.9985
X-20.4383Y-29.3737Z-2.9807
X-20.3323Y-29.4798Z-2.9598
X-20.2262Y-29.5858Z-2.937
X-19.8019Y-30.0101Z-2.8408
X-19.3777Y-30.4344Z-2.7542
X-19.0692Y-30.7429Z-2.6952
X-18.7587Y-31.0534Z-2.6394
X-18.6184Y-31.0523Z-2.6118
X-18.9637Y-30.707Z-2.6721
X-19.3071Y-30.3637Z-2.7362
X-19.5192Y-30.1516Z-2.7778
X-19.7313Y-29.9395Z-2.8217
X-20.1556Y-29.5152Z-2.9165
X-20.3677Y-29.3031Z-2.9595
X-20.4738Y-29.197Z-2.9772
X-20.5798Y-29.0909Z-2.9917
X-20.6859Y-28.9849Z-3.0023
X-20.792Y-28.8788Z-3.0092
X-20.898Y-28.7727Z-3.0125
X-21.0041Y-28.6667Z-3.0124
X-21.1102Y-28.5606Z-3.0089
X-21.2162Y-28.4545Z-3.0015
X-21.3223Y-28.3485Z-2.992
X-21.4284Y-28.2424Z-2.9798
X-21.5344Y-28.1363Z-2.9652
X-21.6405Y-28.0303Z-2.9482
X-21.8526Y-27.8181Z-2.9088
X-22.0648Y-27.606Z-2.8645
X-22.2769Y-27.3939Z-2.8163
X-22.7012Y-26.9696Z-2.712
X-23.5497Y-26.1211Z-2.4951
X-24.3982Y-25.2726Z-2.2788
X-25.2467Y-24.424Z-2.0638
X-26.0953Y-23.5755Z-1.8452
X-26.5195Y-23.1512Z-1.7354
X-26.9438Y-22.727Z-1.6275
X-27.3681Y-22.3027Z-1.5256
X-27.5802Y-22.0906Z-1.4786
X-27.7923Y-21.8784Z-1.4355
X-28.0045Y-21.6663Z-1.3975
X-28.2166Y-21.4542Z-1.3658
X-28.3227Y-21.3481Z-1.3522
X-28.4287Y-21.2421Z-1.3409
X-28.5348Y-21.136Z-1.3312
X-28.6409Y-21.0299Z-1.3236
X-28.7469Y-20.9239Z-1.3186
X-28.853Y-20.8178Z-1.3154
X-28.9591Y-20.7117Z-1.3146
X-29.0651Y-20.6057Z-1.3165
X-29.1712Y-20.4996Z-1.3208
X-29.2773Y-20.3935Z-1.3276
X-29.3833Y-20.2875Z-1.3371
X-29.4894Y-20.1814Z-1.3495
X-29.5955Y-20.0753Z-1.3647
X-29.7015Y-19.9693Z-1.3827
X-29.8076Y-19.8632Z-1.4035
X-29.9137Y-19.7571Z-1.4276
X-30.3379Y-19.3329Z-1.5336
X-30.6377Y-19.033Z-1.6045
X-30.9396Y-18.7312Z-1.6711
X-30.9402Y-18.6563Z-1.6893
X-30.9408Y-18.5887Z-1.7054
X-30.603Y-18.9265Z-1.6332
X-30.2673Y-19.2622Z-1.5555
X-29.843Y-19.6865Z-1.4503
X-29.737Y-19.7926Z-1.4261
X-29.6309Y-19.8986Z-1.4049
X-29.5248Y-20.0047Z-1.3865
X-29.4188Y-20.1108Z-1.371
X-29.3127Y-20.2168Z-1.3582
X-29.2066Y-20.3229Z-1.3481
X-29.1006Y-20.429Z-1.3406
X-28.9945Y-20.535Z-1.3357
X-28.8884Y-20.6411Z-1.3333
X-28.7824Y-20.7472Z-1.3335
X-28.6763Y-20.8532Z-1.3357
X-28.5702Y-20.9593Z-1.3402
X-28.4642Y-21.0654Z-1.3471
X-28.3581Y-21.1714Z-1.3561
X-28.252Y-21.2775Z-1.3669
X-28.146Y-21.3836Z-1.3798
X-27.9338Y-21.5957Z-1.4104
X-27.7217Y-21.8078Z-1.4468
X-27.5096Y-22.0199Z-1.4882
X-27.2974Y-22.2321Z-1.5336
X-27.0853Y-22.4442Z-1.5823
X-26.8732Y-22.6563Z-1.6331
X-26.4489Y-23.0806Z-1.7393
X-26.0246Y-23.5049Z-1.8478
X-25.1761Y-24.3534Z-2.0647
X-24.3276Y-25.2019Z-2.2785
X-23.4791Y-26.0505Z-2.4937
X-23.0548Y-26.4747Z-2.6018
X-22.6305Y-26.899Z-2.7074
X-22.4184Y-27.1111Z-2.7595
X-22.2063Y-27.3232Z-2.8095
X-21.9941Y-27.5354Z-2.8563
X-21.782Y-27.7475Z-2.8988
X-21.5699Y-27.9596Z-2.9354
X-21.4638Y-28.0657Z-2.9512
X-21.3577Y-28.1718Z-2.965
X-21.2517Y-28.2778Z-2.9764
X-21.1456Y-28.3839Z-2.9851
X-21.0395Y-28.49Z-2.9909
X-20.9335Y-28.596Z-2.9935
X-20.8274Y-28.7021Z-2.993
X-20.7213Y-28.8082Z-2.9887
X-20.6153Y-28.9142Z-2.9815
X-20.5092Y-29.0203Z-2.9704
X-20.4031Y-29.1264Z-2.9559
X-20.2971Y-29.2324Z-2.9384
X-20.191Y-29.3385Z-2.9183
X-20.0849Y-29.4446Z-2.8958
X-19.6607Y-29.8688Z-2.8027
X-19.4486Y-30.081Z-2.759
X-19.2364Y-30.2931Z-2.7183
X-18.8583Y-30.6712Z-2.6493
X-18.4782Y-31.0513Z-2.5852
X-18.4033Y-31.0507Z-2.5713
X-18.3381Y-31.0502Z-2.5595
X-18.7529Y-30.6353Z-2.6271
X-19.1658Y-30.2225Z-2.7007
X-19.3779Y-30.0103Z-2.7407
X-19.5901Y-29.7982Z-2.7847
X-20.0143Y-29.3739Z-2.876
X-20.2265Y-29.1618Z-2.9173
X-20.3325Y-29.0557Z-2.9347
X-20.4386Y-28.9497Z-2.9492
X-20.5446Y-28.8436Z-2.9606
X-20.6507Y-28.7375Z-2.9685
X-20.7568Y-28.6315Z-2.9735
X-20.8628Y-28.5254Z-2.9745
X-20.9689Y-28.4193Z-2.9727
X-21.075Y-28.3133Z-2.9679
X-21.181Y-28.2072Z-2.9603
X-21.2871Y-28.1011Z-2.9502
X-21.3932Y-27.9951Z-2.9377
X-21.4992Y-27.889Z-2.9232
X-21.7114Y-27.6769Z-2.8879
X-21.9235Y-27.4648Z-2.8472
X-22.1356Y-27.2526Z-2.802
X-22.5599Y-26.8284Z-2.7032
X-22.9842Y-26.4041Z-2.5988
X-23.4084Y-25.9798Z-2.4922
X-24.257Y-25.1313Z-2.2782
X-25.1055Y-24.2828Z-2.0654
X-25.954Y-23.4342Z-1.8501
X-26.3783Y-23.01Z-1.7432
X-26.8025Y-22.5857Z-1.6394
X-27.0147Y-22.3736Z-1.5901
X-27.2268Y-22.1614Z-1.5425
X-27.4389Y-21.9493Z-1.4983
X-27.6511Y-21.7372Z-1.4582
X-27.8632Y-21.5251Z-1.4233
X-28.0753Y-21.3129Z-1.3944
X-28.1814Y-21.2069Z-1.3823
X-28.2875Y-21.1008Z-1.3723
X-28.4996Y-20.8887Z-1.3578
X-28.6057Y-20.7826Z-1.3539
X-28.7117Y-20.6765Z-1.3521
X-28.8178Y-20.5705Z-1.3524
X-28.9239Y-20.4644Z-1.3554
X-29.0299Y-20.3583Z-1.3608
X-29.136Y-20.2523Z-1.3688
X-29.2421Y-20.1462Z-1.3793
X-29.3481Y-20.0401Z-1.3926
X-29.4542Y-19.9341Z-1.4087
X-29.5603Y-19.828Z-1.4276
X-29.6663Y-19.7219Z-1.4491
X-29.7724Y-19.6159Z-1.4733
X-30.1967Y-19.1916Z-1.5771
X-30.5684Y-18.8199Z-1.6611
X-30.9421Y-18.4462Z-1.7385
X-30.9434Y-18.3036Z-1.7704
X-30.7375Y-18.5095Z-1.7302
X-30.5337Y-18.7133Z-1.6883
X-30.126Y-19.121Z-1.5984
X-29.9139Y-19.3331Z-1.5487
X-29.7018Y-19.5452Z-1.4963
X-29.5957Y-19.6513Z-1.4721
X-29.4896Y-19.7574Z-1.4505
X-29.3836Y-19.8634Z-1.4313
X-29.2775Y-19.9695Z-1.4148
X-29.1714Y-20.0756Z-1.4011
X-29.0654Y-20.1816Z-1.39
X-28.9593Y-20.2877Z-1.3815
X-28.8532Y-20.3938Z-1.3756
X-28.7472Y-20.4998Z-1.3721
X-28.6411Y-20.6059Z-1.371
X-28.535Y-20.712Z-1.372
X-28.429Y-20.818Z-1.3754
X-28.2168Y-21.0302Z-1.3884
X-28.1108Y-21.1362Z-1.3979
X-28.0047Y-21.2423Z-1.4094
X-27.8986Y-21.3484Z-1.4222
X-27.7926Y-21.4544Z-1.437
X-27.5804Y-21.6666Z-1.4705
X-27.3683Y-21.8787Z-1.5089
X-27.1562Y-22.0908Z-1.5515
X-26.944Y-22.303Z-1.5974
X-26.7319Y-22.5151Z-1.6459
X-26.3076Y-22.9393Z-1.7479
X-25.8834Y-23.3636Z-1.8534
X-25.0349Y-24.2121Z-2.066
X-24.1863Y-25.0607Z-2.2782
X-23.3378Y-25.9092Z-2.4903
X-22.9135Y-26.3335Z-2.5953
X-22.4893Y-26.7577Z-2.698
X-22.2771Y-26.9699Z-2.7474
X-22.065Y-27.182Z-2.7945
X-21.8529Y-27.3941Z-2.8381
X-21.6407Y-27.6063Z-2.8768
X-21.4286Y-27.8184Z-2.9095
X-21.3225Y-27.9244Z-2.9233
X-21.2165Y-28.0305Z-2.9351
X-21.1104Y-28.1366Z-2.9445
X-21.0043Y-28.2426Z-2.9512
X-20.8983Y-28.3487Z-2.9552
X-20.7922Y-28.4548Z-2.9562
X-20.6861Y-28.5608Z-2.9542
X-20.5801Y-28.6669Z-2.949
X-20.474Y-28.773Z-2.9406
X-20.368Y-28.879Z-2.929
X-20.2619Y-28.9851Z-2.9144
X-20.1558Y-29.0912Z-2.8971
X-19.9437Y-29.3033Z-2.8565
X-19.5194Y-29.7276Z-2.7668
X-19.3073Y-29.9397Z-2.7231
X-19.0952Y-30.1518Z-2.6833
X-18.6709Y-30.5761Z-2.6095
X-18.2466Y-31.0004Z-2.542
X-18.1979Y-31.0491Z-2.5348
X-18.0577Y-31.048Z-2.5109
X-18.176Y-30.9297Z-2.5282
X-18.6003Y-30.5055Z-2.594
X-19.0245Y-30.0812Z-2.666
X-19.2367Y-29.8691Z-2.706
X-19.4488Y-29.6569Z-2.749
X-19.8731Y-29.2327Z-2.8374
X-20.0852Y-29.0205Z-2.8774
X-20.1913Y-28.9145Z-2.8945
X-20.2973Y-28.8084Z-2.909
X-20.4034Y-28.7023Z-2.9208
X-20.5095Y-28.5963Z-2.9296
X-20.6155Y-28.4902Z-2.9354
X-20.7216Y-28.3841Z-2.938
X-20.8277Y-28.2781Z-2.9374
X-20.9337Y-28.172Z-2.9337
X-21.0398Y-28.066Z-2.9279
X-21.1458Y-27.9599Z-2.9197
X-21.2519Y-27.8538Z-2.9091
X-21.358Y-27.7478Z-2.8964
X-21.5701Y-27.5356Z-2.8654
X-21.7822Y-27.3235Z-2.8282
X-21.9944Y-27.1114Z-2.7861
X-22.2065Y-26.8992Z-2.7405
X-22.4186Y-26.6871Z-2.6927
X-22.8429Y-26.2628Z-2.5921
X-23.2672Y-25.8386Z-2.4883
X-24.1157Y-24.99Z-2.2777
X-24.9642Y-24.1415Z-2.0673
X-25.8128Y-23.293Z-1.8563
X-26.237Y-22.8687Z-1.7525
X-26.6613Y-22.4445Z-1.653
X-26.8734Y-22.2323Z-1.606
X-27.0855Y-22.0202Z-1.5612
X-27.2977Y-21.8081Z-1.5196
X-27.5098Y-21.5959Z-1.4826
X-27.7219Y-21.3838Z-1.4506
X-27.9341Y-21.1717Z-1.4246
X-28.1462Y-20.9595Z-1.4052
X-28.3583Y-20.7474Z-1.3937
X-28.4644Y-20.6413Z-1.3908
X-28.5705Y-20.5353Z-1.3903
X-28.6765Y-20.4292Z-1.3919
X-28.7826Y-20.3231Z-1.3959
X-28.8887Y-20.2171Z-1.4025
X-28.9947Y-20.111Z-1.4115
X-29.1008Y-20.0049Z-1.423
X-29.2069Y-19.8989Z-1.4371
X-29.3129Y-19.7928Z-1.4541
X-29.419Y-19.6867Z-1.4735
X-29.5251Y-19.5807Z-1.4951
X-29.6311Y-19.4746Z-1.5192
X-29.8433Y-19.2625Z-1.5703
X-30.0554Y-19.0503Z-1.6193
X-30.2675Y-18.8382Z-1.6661
X-30.4797Y-18.6261Z-1.7107
X-30.6918Y-18.4139Z-1.7534
X-30.9039Y-18.2018Z-1.7936
X-30.9447Y-18.1611Z-1.8011
X-30.946Y-18.0185Z-1.8305
X-30.8333Y-18.1312Z-1.8105
X-30.6212Y-18.3433Z-1.7712
X-30.409Y-18.5554Z-1.7296
X-29.9848Y-18.9797Z-1.64
X-29.5605Y-19.404Z-1.5413
X-29.4544Y-19.51Z-1.5174
X-29.3484Y-19.6161Z-1.4957
X-29.2423Y-19.7222Z-1.4763
X-29.1362Y-19.8282Z-1.4594
X-29.0302Y-19.9343Z-1.445
X-28.9241Y-20.0404Z-1.433
X-28.818Y-20.1464Z-1.4236
X-28.712Y-20.2525Z-1.4167
X-28.6059Y-20.3586Z-1.4119
X-28.4998Y-20.4646Z-1.4098
X-28.3938Y-20.5707Z-1.4097
X-28.2877Y-20.6768Z-1.4119
X-28.0756Y-20.8889Z-1.4221
X-27.8634Y-21.101Z-1.4402
X-27.6513Y-21.3132Z-1.4651
X-27.4392Y-21.5253Z-1.4956
X-27.227Y-21.7374Z-1.531
X-27.0149Y-21.9496Z-1.5709
X-26.8028Y-22.1617Z-1.6141
X-26.5907Y-22.3738Z-1.6601
X-26.1664Y-22.7981Z-1.758
X-25.7421Y-23.2223Z-1.8601
X-24.8936Y-24.0709Z-2.0684
X-24.0451Y-24.9194Z-2.2773
X-23.1965Y-25.7679Z-2.4859
X-22.7723Y-26.1922Z-2.5879
X-22.348Y-26.6165Z-2.6868
X-22.1359Y-26.8286Z-2.7338
X-21.9237Y-27.0407Z-2.7775
X-21.7116Y-27.2529Z-2.818
X-21.4995Y-27.465Z-2.8534
X-21.2873Y-27.6771Z-2.8825
X-21.1813Y-27.7832Z-2.8944
X-21.0752Y-27.8893Z-2.9043
X-20.9692Y-27.9953Z-2.9119
X-20.8631Y-28.1014Z-2.9168
X-20.757Y-28.2075Z-2.9192
X-20.651Y-28.3135Z-2.9193
X-20.5449Y-28.4196Z-2.916
X-20.4388Y-28.5256Z-2.9099
X-20.3328Y-28.6317Z-2.9009
X-20.2267Y-28.7378Z-2.889
X-20.1206Y-28.8438Z-2.8746
X-20.0146Y-28.9499Z-2.8579
X-19.8024Y-29.162Z-2.8186
X-19.3782Y-29.5863Z-2.7319
X-19.166Y-29.7984Z-2.6891
X-18.9539Y-30.0106Z-2.6493
X-18.5296Y-30.4348Z-2.5788
X-18.1054Y-30.8591Z-2.5144
X-17.9175Y-31.047Z-2.488
X-17.7772Y-31.046Z-2.4659
X-18.0347Y-30.7885Z-2.5011
X-18.459Y-30.3642Z-2.5639
X-18.6711Y-30.1521Z-2.5976
X-18.8833Y-29.9399Z-2.6334
X-19.0954Y-29.7278Z-2.6728
X-19.3075Y-29.5157Z-2.7149
X-19.7318Y-29.0914Z-2.8002
X-19.9439Y-28.8793Z-2.8383
X-20.05Y-28.7732Z-2.8547
X-20.1561Y-28.6672Z-2.869
X-20.2621Y-28.5611Z-2.8809
X-20.3682Y-28.455Z-2.8902
X-20.4743Y-28.349Z-2.8967
X-20.5803Y-28.2429Z-2.9005
X-20.6864Y-28.1368Z-2.9011
X-20.7925Y-28.0308Z-2.8994
X-20.8985Y-27.9247Z-2.8952
X-21.0046Y-27.8186Z-2.8886
X-21.1107Y-27.7126Z-2.8797
X-21.2167Y-27.6065Z-2.8689
X-21.4289Y-27.3944Z-2.8415
X-21.641Y-27.1822Z-2.8077
X-21.8531Y-26.9701Z-2.7687
X-22.0652Y-26.758Z-2.7259
X-22.2774Y-26.5458Z-2.6808
X-22.7016Y-26.1216Z-2.5841
X-23.1259Y-25.6973Z-2.4835
X-23.9744Y-24.8488Z-2.2769
X-24.823Y-24.0002Z-2.0694
X-25.6715Y-23.1517Z-1.8634
X-26.0958Y-22.7275Z-1.7631
X-26.52Y-22.3032Z-1.668
X-26.7322Y-22.0911Z-1.6232
X-26.9443Y-21.8789Z-1.5813
X-27.1564Y-21.6668Z-1.543
X-27.3685Y-21.4547Z-1.5084
X-27.5807Y-21.2425Z-1.4792
X-27.7928Y-21.0304Z-1.4559
X-28.0049Y-20.8183Z-1.4394
X-28.111Y-20.7122Z-1.434
X-28.2171Y-20.6061Z-1.4306
X-28.3231Y-20.5001Z-1.4288
X-28.4292Y-20.394Z-1.4294
X-28.5353Y-20.2879Z-1.4322
X-28.6413Y-20.1819Z-1.4374
X-28.7474Y-20.0758Z-1.4448
X-28.8535Y-19.9697Z-1.4545
X-28.9595Y-19.8637Z-1.4669
X-29.0656Y-19.7576Z-1.4816
X-29.1717Y-19.6515Z-1.4985
X-29.2777Y-19.5455Z-1.5179
X-29.4899Y-19.3333Z-1.563
X-29.9141Y-18.9091Z-1.6604
X-30.1263Y-18.6969Z-1.7051
X-30.3384Y-18.4848Z-1.7479
X-30.5505Y-18.2727Z-1.7886
X-30.7627Y-18.0605Z-1.8272
X-30.9473Y-17.8759Z-1.8588
X-30.9483Y-17.7711Z-1.8788
X-30.9487Y-17.7332Z-1.8858
X-30.692Y-17.9899Z-1.8434
X-30.4799Y-18.202Z-1.8057
X-30.2678Y-18.4142Z-1.766
X-30.0556Y-18.6263Z-1.7241
X-29.8435Y-18.8384Z-1.68
X-29.4192Y-19.2627Z-1.5843
X-29.2071Y-19.4748Z-1.54
X-29.101Y-19.5809Z-1.5208
X-28.995Y-19.687Z-1.5039
X-28.8889Y-19.793Z-1.4889
X-28.7828Y-19.8991Z-1.4763
X-28.6768Y-20.0052Z-1.4659
X-28.5707Y-20.1112Z-1.4582
X-28.4646Y-20.2173Z-1.4526
X-28.3586Y-20.3234Z-1.4492
X-28.2525Y-20.4294Z-1.4481
X-28.1464Y-20.5355Z-1.449
X-28.0404Y-20.6416Z-1.452
X-27.9343Y-20.7476Z-1.4568
X-27.7222Y-20.9598Z-1.4719
X-27.51Y-21.1719Z-1.4938
X-27.2979Y-21.384Z-1.5218
X-27.0858Y-21.5962Z-1.5545
X-26.8737Y-21.8083Z-1.5915
X-26.6615Y-22.0204Z-1.6321
X-26.4494Y-22.2326Z-1.6757
X-26.2373Y-22.4447Z-1.7214
X-26.0251Y-22.6568Z-1.7692
X-25.6009Y-23.0811Z-1.8672
X-24.7523Y-23.9296Z-2.0711
X-23.9038Y-24.7781Z-2.2767
X-23.0553Y-25.6267Z-2.4807
X-22.631Y-26.0509Z-2.5795
X-22.2067Y-26.4752Z-2.6744
X-21.9946Y-26.6873Z-2.7185
X-21.7825Y-26.8995Z-2.7593
X-21.5704Y-27.1116Z-2.7967
X-21.3582Y-27.3237Z-2.829
X-21.1461Y-27.5359Z-2.8547
X-21.04Y-27.6419Z-2.865
X-20.934Y-27.748Z-2.8732
X-20.8279Y-27.8541Z-2.8791
X-20.7218Y-27.9601Z-2.8826
X-20.6158Y-28.0662Z-2.8838
X-20.5097Y-28.1723Z-2.8824
X-20.4036Y-28.2783Z-2.8783
X-20.2976Y-28.3844Z-2.8715
X-20.1915Y-28.4905Z-2.8621
X-20.0854Y-28.5965Z-2.85
X-19.9794Y-28.7026Z-2.8357
X-19.8733Y-28.8087Z-2.8195
X-19.6612Y-29.0208Z-2.7822
X-19.2369Y-29.445Z-2.6986
X-19.0248Y-29.6572Z-2.6571
X-18.8126Y-29.8693Z-2.6176
X-18.6005Y-30.0814Z-2.5818
X-18.3884Y-30.2936Z-2.5492
X-17.9641Y-30.7178Z-2.4878
X-17.637Y-31.0449Z-2.4448
X-17.497Y-31.0437Z-2.4247
X-17.8935Y-30.6472Z-2.475
X-18.3177Y-30.2229Z-2.5347
X-18.5299Y-30.0108Z-2.5667
X-18.742Y-29.7987Z-2.6026
X-19.1663Y-29.3744Z-2.6824
X-19.5905Y-28.9502Z-2.7646
X-19.8027Y-28.738Z-2.8011
X-20.0148Y-28.5259Z-2.8313
X-20.1209Y-28.4198Z-2.8436
X-20.2269Y-28.3138Z-2.8532
X-20.333Y-28.2077Z-2.8602
X-20.4391Y-28.1016Z-2.8647
X-20.5451Y-27.9956Z-2.8666
X-20.6512Y-27.8895Z-2.8656
X-20.7573Y-27.7834Z-2.8626
X-20.8633Y-27.6774Z-2.8574
X-21.0755Y-27.4652Z-2.8409
X-21.2876Y-27.2531Z-2.8165
X-21.4997Y-27.041Z-2.7859
X-21.7119Y-26.8288Z-2.7501
X-21.924Y-26.6167Z-2.7102
X-22.1361Y-26.4046Z-2.6676
X-22.5604Y-25.9803Z-2.5751
X-22.9846Y-25.556Z-2.4777
X-23.8332Y-24.7075Z-2.2761
X-24.6817Y-23.859Z-2.0729
X-25.106Y-23.4347Z-1.9713
X-25.5302Y-23.0105Z-1.8717
X-25.9545Y-22.5862Z-1.7748
X-26.1666Y-22.3741Z-1.7283
X-26.3788Y-22.1619Z-1.684
X-26.5909Y-21.9498Z-1.6416
X-26.803Y-21.7377Z-1.6025
X-27.0152Y-21.5255Z-1.5666
X-27.2273Y-21.3134Z-1.5352
X-27.4394Y-21.1013Z-1.5086
X-27.6515Y-20.8891Z-1.488
X-27.7576Y-20.7831Z-1.4802
X-27.8637Y-20.677Z-1.4744
X-28.0758Y-20.4649Z-1.4676
X-28.1819Y-20.3588Z-1.4674
X-28.2879Y-20.2527Z-1.4692
X-28.394Y-20.1467Z-1.4728
X-28.5001Y-20.0406Z-1.4788
X-28.6061Y-19.9345Z-1.487
X-28.7122Y-19.8285Z-1.4976
X-28.8183Y-19.7224Z-1.5103
X-28.9243Y-19.6163Z-1.5256
X-29.0304Y-19.5103Z-1.5424
X-29.1365Y-19.4042Z-1.5615
X-29.3486Y-19.1921Z-1.605
X-29.7729Y-18.7678Z-1.699
X-29.985Y-18.5557Z-1.7428
X-30.1971Y-18.3436Z-1.7836
X-30.4093Y-18.1314Z-1.8225
X-30.6214Y-17.9193Z-1.8593
X-30.9501Y-17.5906Z-1.9117
X-30.9508Y-17.5182Z-1.9245
X-30.9516Y-17.4479Z-1.9365
X-30.7502Y-17.6493Z-1.9066
X-30.5508Y-17.8487Z-1.8748
X-30.3386Y-18.0608Z-1.839
X-30.1265Y-18.2729Z-1.8011
X-29.9144Y-18.4851Z-1.7614
X-29.7022Y-18.6972Z-1.7176
X-29.278Y-19.1214Z-1.6253
X-29.0658Y-19.3336Z-1.5822
X-28.9598Y-19.4396Z-1.5634
X-28.8537Y-19.5457Z-1.5466
X-28.7476Y-19.6518Z-1.5313
X-28.6416Y-19.7578Z-1.5184
X-28.5355Y-19.8639Z-1.5078
X-28.4294Y-19.97Z-1.4993
X-28.3234Y-20.076Z-1.4931
X-28.2173Y-20.1821Z-1.4891
X-28.1112Y-20.2882Z-1.4866
X-28.0052Y-20.3942Z-1.4865
X-27.7931Y-20.6064Z-1.4919
X-27.5809Y-20.8185Z-1.5043
X-27.3688Y-21.0306Z-1.5236
X-27.1567Y-21.2428Z-1.5491
X-26.9445Y-21.4549Z-1.5787
X-26.7324Y-21.667Z-1.6131
X-26.5203Y-21.8792Z-1.6512
X-26.3081Y-22.0913Z-1.6924
X-26.096Y-22.3034Z-1.7357
X-25.8839Y-22.5156Z-1.7814
X-25.4596Y-22.9398Z-1.8761
X-25.0353Y-23.3641Z-1.9742
X-24.6111Y-23.7884Z-2.0743
X-23.7625Y-24.6369Z-2.2754
X-23.3383Y-25.0611Z-2.3763
X-22.914Y-25.4854Z-2.4747
X-22.4897Y-25.9097Z-2.5702
X-22.0655Y-26.3339Z-2.6608
X-21.8534Y-26.5461Z-2.7021
X-21.6412Y-26.7582Z-2.7402
X-21.4291Y-26.9703Z-2.7746
X-21.217Y-27.1825Z-2.8038
X-21.0048Y-27.3946Z-2.8266
X-20.7927Y-27.6067Z-2.8417
X-20.6866Y-27.7128Z-2.8462
X-20.5806Y-27.8189Z-2.8486
X-20.4745Y-27.9249Z-2.8491
X-20.3684Y-28.031Z-2.8467
X-20.2624Y-28.1371Z-2.8419
X-20.1563Y-28.2431Z-2.8347
X-20.0502Y-28.3492Z-2.8251
X-19.9442Y-28.4553Z-2.8128
X-19.732Y-28.6674Z-2.7832
X-19.5199Y-28.8795Z-2.7474
X-19.0956Y-29.3038Z-2.6668
X-18.6714Y-29.728Z-2.5877
X-18.4592Y-29.9402Z-2.5522
X-18.2471Y-30.1523Z-2.5204
X-17.8228Y-30.5766Z-2.4623
X-17.3571Y-31.0423Z-2.4054
X-17.2653Y-31.0414Z-2.3932
X-17.2173Y-31.0409Z-2.387
X-17.4857Y-30.7724Z-2.4174
X-17.7522Y-30.5059Z-2.4499
X-18.1765Y-30.0817Z-2.5064
X-18.3886Y-29.8696Z-2.5383
X-18.6007Y-29.6574Z-2.5736
X-19.025Y-29.2332Z-2.6513
X-19.4493Y-28.8089Z-2.7305
X-19.6614Y-28.5968Z-2.7656
X-19.8735Y-28.3846Z-2.7947
X-19.9796Y-28.2786Z-2.8065
X-20.0857Y-28.1725Z-2.8162
X-20.1917Y-28.0664Z-2.8236
X-20.2978Y-27.9604Z-2.8288
X-20.4039Y-27.8543Z-2.8316
X-20.5099Y-27.7482Z-2.8319
X-20.616Y-27.6422Z-2.83
X-20.7221Y-27.5361Z-2.826
X-20.9342Y-27.324Z-2.8124
X-21.1463Y-27.1118Z-2.7908
X-21.3585Y-26.8997Z-2.7632
X-21.5706Y-26.6876Z-2.7307
X-21.7827Y-26.4754Z-2.6936
X-21.9949Y-26.2633Z-2.6535
X-22.4191Y-25.839Z-2.5653
X-22.8434Y-25.4148Z-2.4714
X-23.6919Y-24.5662Z-2.2751
X-24.5404Y-23.7177Z-2.0763
X-24.9647Y-23.2935Z-1.9773
X-25.389Y-22.8692Z-1.8808
X-25.8132Y-22.4449Z-1.7875
X-26.0254Y-22.2328Z-1.7431
X-26.2375Y-22.0207Z-1.701
X-26.4496Y-21.8085Z-1.661
X-26.6618Y-21.5964Z-1.6246
X-26.8739Y-21.3843Z-1.5911
X-27.086Y-21.1721Z-1.5627
X-27.2982Y-20.96Z-1.5386
X-27.5103Y-20.7479Z-1.5209
X-27.6164Y-20.6418Z-1.5141
X-27.7224Y-20.5357Z-1.5097
X-27.9346Y-20.3236Z-1.505
X-28.0406Y-20.2175Z-1.5057
X-28.1467Y-20.1115Z-1.5084
X-28.2527Y-20.0054Z-1.5131
X-28.3588Y-19.8993Z-1.5197
X-28.4649Y-19.7933Z-1.5286
X-28.5709Y-19.6872Z-1.5393
X-28.677Y-19.5811Z-1.5523
X-28.7831Y-19.4751Z-1.5676
X-28.8891Y-19.369Z-1.5843
X-28.9952Y-19.2629Z-1.6028
X-29.2073Y-19.0508Z-1.6452
X-29.6316Y-18.6266Z-1.7356
X-29.8437Y-18.4144Z-1.7789
X-30.0559Y-18.2023Z-1.8182
X-30.4801Y-17.778Z-1.89
X-30.7156Y-17.5426Z-1.9263
X-30.953Y-17.3051Z-1.96
X-30.9534Y-17.2653Z-1.9665
X-30.9544Y-17.1625Z-1.9825
X-30.681Y-17.4359Z-1.9454
X-30.4095Y-17.7074Z-1.9048
X-30.1974Y-17.9195Z-1.8709
X-29.9852Y-18.1317Z-1.8349
X-29.7731Y-18.3438Z-1.7958
X-29.561Y-18.5559Z-1.7532
X-29.1367Y-18.9802Z-1.6645
X-28.9246Y-19.1923Z-1.6234
X-28.8185Y-19.2984Z-1.6051
X-28.7124Y-19.4044Z-1.5885
X-28.6064Y-19.5105Z-1.5733
X-28.5003Y-19.6166Z-1.5602
X-28.2882Y-19.8287Z-1.54
X-28.1821Y-19.9348Z-1.5328
X-28.0761Y-20.0408Z-1.528
X-27.97Y-20.1469Z-1.5246
X-27.8639Y-20.253Z-1.5235
X-27.6518Y-20.4651Z-1.5271
X-27.5457Y-20.5712Z-1.531
X-27.4397Y-20.6772Z-1.5376
X-27.3336Y-20.7833Z-1.5448
X-27.2275Y-20.8894Z-1.5538
X-27.1215Y-20.9954Z-1.5641
X-27.0154Y-21.1015Z-1.5766
X-26.8033Y-21.3136Z-1.6035
X-26.5911Y-21.5258Z-1.6355
X-26.379Y-21.7379Z-1.6709
X-26.1669Y-21.95Z-1.7099
X-25.9547Y-22.1622Z-1.7508
X-25.7426Y-22.3743Z-1.7944
X-25.3183Y-22.7986Z-1.8854
X-24.8941Y-23.2228Z-1.9805
X-24.4698Y-23.6471Z-2.078
X-23.6213Y-24.4956Z-2.2745
X-22.7728Y-25.3441Z-2.4681
X-22.3485Y-25.7684Z-2.5602
X-22.1364Y-25.9805Z-2.6041
X-21.9242Y-26.1927Z-2.646
X-21.7121Y-26.4048Z-2.6849
X-21.5Y-26.6169Z-2.7203
X-21.2878Y-26.8291Z-2.7518
X-21.0757Y-27.0412Z-2.7781
X-20.8636Y-27.2533Z-2.7981
X-20.6514Y-27.4655Z-2.8109
X-20.5454Y-27.5715Z-2.8143
X-20.4393Y-27.6776Z-2.8155
X-20.3332Y-27.7837Z-2.8149
X-20.2272Y-27.8897Z-2.8118
X-20.1211Y-27.9958Z-2.8064
X-20.015Y-28.1019Z-2.7989
X-19.8029Y-28.314Z-2.7774
X-19.5908Y-28.5261Z-2.7487
X-19.3786Y-28.7383Z-2.7144
X-18.9544Y-29.1625Z-2.6366
X-18.5301Y-29.5868Z-2.5595
X-18.318Y-29.7989Z-2.5245
X-18.1058Y-30.0111Z-2.4926
X-17.6816Y-30.4353Z-2.4379
X-17.3805Y-30.7364Z-2.4024
X-17.0774Y-31.0395Z-2.3696
X-17.0124Y-31.0388Z-2.3617
X-16.9374Y-31.0382Z-2.353
X-17.2752Y-30.7005Z-2.3877
X-17.611Y-30.3647Z-2.4259
X-17.8231Y-30.1526Z-2.4519
X-18.0352Y-29.9404Z-2.48
X-18.2473Y-29.7283Z-2.5117
X-18.4595Y-29.5162Z-2.5462
X-18.8837Y-29.0919Z-2.6218
X-19.308Y-28.6676Z-2.6985
X-19.5201Y-28.4555Z-2.7321
X-19.7323Y-28.2434Z-2.7604
X-19.9444Y-28.0312Z-2.7817
X-20.0505Y-27.9252Z-2.7894
X-20.1565Y-27.8191Z-2.7949
X-20.2626Y-27.713Z-2.7983
X-20.3687Y-27.607Z-2.7993
X-20.4747Y-27.5009Z-2.7985
X-20.5808Y-27.3948Z-2.7956
X-20.7929Y-27.1827Z-2.7837
X-21.0051Y-26.9706Z-2.7648
X-21.2172Y-26.7584Z-2.7402
X-21.4293Y-26.5463Z-2.7104
X-21.6415Y-26.3342Z-2.6762
X-21.8536Y-26.122Z-2.6385
X-22.0657Y-25.9099Z-2.598
X-22.2779Y-25.6978Z-2.5551
X-22.7021Y-25.2735Z-2.4645
X-23.1264Y-24.8493Z-2.3704
X-23.5506Y-24.425Z-2.2738
X-24.3992Y-23.5765Z-2.0801
X-24.8234Y-23.1522Z-1.9838
X-25.2477Y-22.7279Z-1.8906
X-25.672Y-22.3037Z-1.801
X-25.8841Y-22.0915Z-1.7586
X-26.0962Y-21.8794Z-1.7188
X-26.3084Y-21.6673Z-1.681
X-26.5205Y-21.4551Z-1.6473
X-26.7326Y-21.243Z-1.6162
X-26.9448Y-21.0309Z-1.5905
X-27.1569Y-20.8187Z-1.569
X-27.369Y-20.6066Z-1.5537
X-27.4751Y-20.5005Z-1.5479
X-27.5812Y-20.3945Z-1.5446
X-27.7933Y-20.1823Z-1.5418
X-27.8994Y-20.0763Z-1.5433
X-28.0054Y-19.9702Z-1.5468
X-28.1115Y-19.8641Z-1.5521
X-28.2176Y-19.7581Z-1.5594
X-28.4297Y-19.546Z-1.5799
X-28.5358Y-19.4399Z-1.593
X-28.6418Y-19.3338Z-1.6082
X-28.7479Y-19.2278Z-1.6246
X-28.8539Y-19.1217Z-1.643
X-29.0661Y-18.9096Z-1.6834
X-29.4903Y-18.4853Z-1.77
X-29.7025Y-18.2732Z-1.8125
X-29.9146Y-18.061Z-1.8516
X-30.3389Y-17.6368Z-1.9194
X-30.6464Y-17.3293Z-1.9637
X-30.9558Y-17.0198Z-2.0037
X-30.9574Y-16.877Z-2.0239
X-30.6118Y-17.2226Z-1.9814
X-30.2682Y-17.5661Z-1.9336
X-30.0561Y-17.7783Z-1.9016
X-29.844Y-17.9904Z-1.867
X-29.6318Y-18.2025Z-1.8284
X-29.4197Y-18.4147Z-1.7867
X-28.9955Y-18.8389Z-1.7017
X-28.7833Y-19.0511Z-1.6622
X-28.6773Y-19.1571Z-1.6441
X-28.5712Y-19.2632Z-1.6278
X-28.4651Y-19.3693Z-1.6127
X-28.3591Y-19.4753Z-1.5996
X-28.1469Y-19.6875Z-1.5789
X-28.0409Y-19.7935Z-1.5713
X-27.9348Y-19.8996Z-1.5657
X-27.7227Y-20.1117Z-1.56
X-27.5105Y-20.3238Z-1.562
X-27.4045Y-20.4299Z-1.5648
X-27.2984Y-20.536Z-1.57
X-27.1923Y-20.642Z-1.5761
X-27.0863Y-20.7481Z-1.5842
X-26.8741Y-20.9602Z-1.6043
X-26.662Y-21.1724Z-1.6289
X-26.4499Y-21.3845Z-1.6585
X-26.2377Y-21.5966Z-1.6913
X-26.0256Y-21.8088Z-1.7281
X-25.8135Y-22.0209Z-1.7668
X-25.6013Y-22.233Z-1.8082
X-25.1771Y-22.6573Z-1.8958
X-24.7528Y-23.0816Z-1.9872
X-24.3285Y-23.5058Z-2.0819
X-23.48Y-24.3544Z-2.273
X-23.0558Y-24.7786Z-2.3685
X-22.6315Y-25.2029Z-2.461
X-22.2072Y-25.6271Z-2.5494
X-21.9951Y-25.8393Z-2.591
X-21.783Y-26.0514Z-2.6303
X-21.5708Y-26.2635Z-2.6671
X-21.3587Y-26.4757Z-2.6998
X-21.1466Y-26.6878Z-2.7282
X-20.9344Y-26.8999Z-2.7519
X-20.7223Y-27.1121Z-2.7696
X-20.5102Y-27.3242Z-2.7804
X-20.298Y-27.5363Z-2.7831
X-20.192Y-27.6424Z-2.7817
X-20.0859Y-27.7485Z-2.778
X-19.9798Y-27.8545Z-2.7723
X-19.8738Y-27.9606Z-2.7646
X-19.6616Y-28.1727Z-2.7434
X-19.4495Y-28.3849Z-2.7157
X-19.2374Y-28.597Z-2.6826
X-18.8131Y-29.0213Z-2.6079
X-18.3888Y-29.4455Z-2.533
X-18.1767Y-29.6577Z-2.499
X-17.9646Y-29.8698Z-2.4677
X-17.7525Y-30.0819Z-2.4393
X-17.5403Y-30.2941Z-2.4144
X-17.1698Y-30.6646Z-2.3736
X-16.7973Y-31.0371Z-2.3373
X-16.6571Y-31.036Z-2.3226
X-17.0644Y-30.6287Z-2.3602
X-17.4697Y-30.2234Z-2.4028
X-17.6818Y-30.0113Z-2.4272
X-17.894Y-29.7992Z-2.4557
X-18.1061Y-29.587Z-2.4867
X-18.3182Y-29.3749Z-2.5206
X-18.7425Y-28.9506Z-2.5938
X-19.1667Y-28.5264Z-2.667
X-19.3789Y-28.3142Z-2.6993
X-19.591Y-28.1021Z-2.7265
X-19.8031Y-27.89Z-2.7474
X-20.0153Y-27.6778Z-2.7611
X-20.1213Y-27.5718Z-2.7651
X-20.2274Y-27.4657Z-2.767
X-20.4395Y-27.2536Z-2.7651
X-20.6517Y-27.0414Z-2.7555
X-20.8638Y-26.8293Z-2.7392
X-21.0759Y-26.6172Z-2.7167
X-21.2881Y-26.405Z-2.6892
X-21.5002Y-26.1929Z-2.6579
X-21.7123Y-25.9808Z-2.6224
X-22.1366Y-25.5565Z-2.5435
X-22.5609Y-25.1323Z-2.4574
X-22.9851Y-24.708Z-2.3659
X-23.4094Y-24.2837Z-2.2726
X-24.2579Y-23.4352Z-2.084
X-24.6822Y-23.0109Z-1.9908
X-25.1064Y-22.5867Z-1.9008
X-25.3186Y-22.3745Z-1.8569
X-25.5307Y-22.1624Z-1.8152
X-25.7428Y-21.9503Z-1.7748
X-25.955Y-21.7381Z-1.7371
X-26.1671Y-21.526Z-1.7018
X-26.3792Y-21.3139Z-1.6702
X-26.5914Y-21.1017Z-1.6417
X-26.8035Y-20.8896Z-1.6184
X-27.0156Y-20.6775Z-1.5992
X-27.2278Y-20.4653Z-1.5862
X-27.3338Y-20.3593Z-1.5815
X-27.4399Y-20.2532Z-1.5791
X-27.652Y-20.0411Z-1.5783
X-27.8642Y-19.829Z-1.5849
X-27.9702Y-19.7229Z-1.5906
X-28.0763Y-19.6168Z-1.5985
X-28.2884Y-19.4047Z-1.6193
X-28.3945Y-19.2986Z-1.6323
X-28.5006Y-19.1926Z-1.6472
X-28.7127Y-18.9804Z-1.6809
X-28.9248Y-18.7683Z-1.7197
X-29.3491Y-18.344Z-1.8028
X-29.5612Y-18.1319Z-1.8439
X-29.7733Y-17.9198Z-1.8821
X-29.9855Y-17.7076Z-1.9163
X-30.1976Y-17.4955Z-1.9474
X-30.5773Y-17.1158Z-1.9984
X-30.959Y-16.7341Z-2.0429
X-30.9606Y-16.5912Z-2.0607
X-30.5428Y-17.0091Z-2.0148
X-30.127Y-17.4249Z-1.9611
X-29.9148Y-17.637Z-1.931
X-29.7027Y-17.8491Z-1.8967
X-29.4906Y-18.0613Z-1.8589
X-29.2785Y-18.2734Z-1.8187
X-28.8542Y-18.6977Z-1.7371
X-28.6421Y-18.9098Z-1.699
X-28.4299Y-19.1219Z-1.6659
X-28.2178Y-19.3341Z-1.6381
X-28.0057Y-19.5462Z-1.6171
X-27.8996Y-19.6523Z-1.6091
X-27.7935Y-19.7583Z-1.6032
X-27.5814Y-19.9705Z-1.5959
X-27.4753Y-20.0765Z-1.5951
X-27.3693Y-20.1826Z-1.5961
X-27.2632Y-20.2887Z-1.598
X-27.1571Y-20.3947Z-1.6022
X-27.0511Y-20.5008Z-1.6073
X-26.945Y-20.6068Z-1.6143
X-26.7329Y-20.819Z-1.6321
X-26.5207Y-21.0311Z-1.6545
X-26.3086Y-21.2432Z-1.6817
X-26.0965Y-21.4554Z-1.7123
X-25.8843Y-21.6675Z-1.7467
X-25.6722Y-21.8796Z-1.7832
X-25.4601Y-22.0918Z-1.8224
X-25.0358Y-22.516Z-1.9059
X-24.6115Y-22.9403Z-1.9944
X-24.1873Y-23.3646Z-2.086
X-23.3388Y-24.2131Z-2.2718
X-22.9145Y-24.6374Z-2.3637
X-22.4902Y-25.0616Z-2.4533
X-22.066Y-25.4859Z-2.5375
X-21.8538Y-25.698Z-2.5771
X-21.6417Y-25.9102Z-2.6146
X-21.4296Y-26.1223Z-2.6487
X-21.2174Y-26.3344Z-2.6792
X-21.0053Y-26.5465Z-2.7054
X-20.7932Y-26.7587Z-2.7264
X-20.581Y-26.9708Z-2.7415
X-20.3689Y-27.1829Z-2.7501
X-20.2628Y-27.289Z-2.7519
X-20.1568Y-27.3951Z-2.7516
X-19.9446Y-27.6072Z-2.7454
X-19.7325Y-27.8193Z-2.7315
X-19.5204Y-28.0315Z-2.7107
X-19.3082Y-28.2436Z-2.6839
X-19.0961Y-28.4557Z-2.6523
X-18.6719Y-28.88Z-2.5806
X-18.2476Y-29.3043Z-2.5081
X-18.0355Y-29.5164Z-2.4748
X-17.8233Y-29.7285Z-2.4439
X-17.6112Y-29.9407Z-2.4157
X-17.3991Y-30.1528Z-2.3917
X-16.9748Y-30.5771Z-2.3486
X-16.5505Y-31.0013Z-2.3115
X-16.5169Y-31.035Z-2.3088
X-16.3768Y-31.0338Z-2.2959
X-16.4799Y-30.9307Z-2.3036
X-16.9042Y-30.5064Z-2.3394
X-17.1163Y-30.2943Z-2.3594
X-17.3284Y-30.0822Z-2.3808
X-17.5406Y-29.87Z-2.4049
X-17.7527Y-29.6579Z-2.4328
X-17.9648Y-29.4458Z-2.4634
X-18.177Y-29.2336Z-2.4965
X-18.6012Y-28.8094Z-2.5673
X-19.0255Y-28.3851Z-2.6375
X-19.2376Y-28.173Z-2.6688
X-19.4497Y-27.9608Z-2.6952
X-19.6619Y-27.7487Z-2.7158
X-19.874Y-27.5366Z-2.7298
X-20.0861Y-27.3244Z-2.7364
X-20.1922Y-27.2184Z-2.737
X-20.2983Y-27.1123Z-2.7355
X-20.5104Y-26.9002Z-2.7276
X-20.7225Y-26.688Z-2.7134
X-20.9347Y-26.4759Z-2.6937
X-21.1468Y-26.2638Z-2.669
X-21.3589Y-26.0517Z-2.6397
X-21.5711Y-25.8395Z-2.6067
X-21.7832Y-25.6274Z-2.5706
X-21.9953Y-25.4153Z-2.5318
X-22.4196Y-24.991Z-2.4491
X-22.8439Y-24.5667Z-2.3613
X-23.2681Y-24.1425Z-2.2709
X-24.1167Y-23.2939Z-2.0884
X-24.5409Y-22.8697Z-1.9983
X-24.9652Y-22.4454Z-1.9114
X-25.3894Y-22.0211Z-1.8298
X-25.6016Y-21.809Z-1.7915
X-25.8137Y-21.5969Z-1.7558
X-26.0258Y-21.3847Z-1.7229
X-26.238Y-21.1726Z-1.6934
X-26.4501Y-20.9605Z-1.6674
X-26.6622Y-20.7484Z-1.6461
X-26.7683Y-20.6423Z-1.6368
X-26.8744Y-20.5362Z-1.6294
X-26.9804Y-20.4302Z-1.6228
X-27.0865Y-20.3241Z-1.618
X-27.1926Y-20.218Z-1.6144
X-27.2986Y-20.112Z-1.6131
X-27.4047Y-20.0059Z-1.6121
X-27.5108Y-19.8998Z-1.6134
X-27.7229Y-19.6877Z-1.621
X-27.829Y-19.5816Z-1.6272
X-27.935Y-19.4756Z-1.6354
X-28.1472Y-19.2634Z-1.6564
X-28.2532Y-19.1574Z-1.6692
X-28.3593Y-19.0513Z-1.684
X-28.4654Y-18.9452Z-1.6996
X-28.5714Y-18.8392Z-1.7169
X-28.7836Y-18.627Z-1.754
X-29.2078Y-18.2028Z-1.8338
X-29.42Y-17.9906Z-1.8733
X-29.6321Y-17.7785Z-1.9106
X-29.8442Y-17.5664Z-1.9446
X-30.0563Y-17.3542Z-1.9743
X-30.4806Y-16.93Z-2.0271
X-30.6927Y-16.7178Z-2.0507
X-30.9049Y-16.5057Z-2.072
X-30.9622Y-16.4484Z-2.0774
X-30.963Y-16.3801Z-2.0849
X-30.9637Y-16.3056Z-2.0928
X-30.8342Y-16.4351Z-2.0814
X-30.6221Y-16.6472Z-2.0609
X-30.41Y-16.8593Z-2.0383
X-29.9857Y-17.2836Z-1.9873
X-29.7736Y-17.4957Z-1.9579
X-29.5615Y-17.7079Z-1.9242
X-29.1372Y-18.1321Z-1.8486
X-28.7129Y-18.5564Z-1.7704
X-28.5008Y-18.7685Z-1.734
X-28.2887Y-18.9807Z-1.7018
X-28.0765Y-19.1928Z-1.6747
X-27.8644Y-19.4049Z-1.6536
X-27.7583Y-19.511Z-1.6453
X-27.6523Y-19.6171Z-1.639
X-27.4401Y-19.8292Z-1.6308
X-27.3341Y-19.9353Z-1.6292
X-27.228Y-20.0413Z-1.6297
X-27.1219Y-20.1474Z-1.6308
X-27.0159Y-20.2535Z-1.6338
X-26.8037Y-20.4656Z-1.6443
X-26.5916Y-20.6777Z-1.6598
X-26.3795Y-20.8899Z-1.6801
X-26.1673Y-21.102Z-1.7051
X-25.9552Y-21.3141Z-1.7334
X-25.7431Y-21.5262Z-1.7657
X-25.5309Y-21.7384Z-1.8002
X-25.3188Y-21.9505Z-1.8374
X-24.8945Y-22.3748Z-1.9169
X-24.4703Y-22.799Z-2.0021
X-24.046Y-23.2233Z-2.0907
X-23.1975Y-24.0718Z-2.2701
X-22.7732Y-24.4961Z-2.3591
X-22.349Y-24.9204Z-2.4453
X-21.9247Y-25.3446Z-2.526
X-21.7126Y-25.5568Z-2.5633
X-21.5004Y-25.7689Z-2.598
X-21.2883Y-25.981Z-2.6304
X-21.0762Y-26.1932Z-2.6584
X-20.864Y-26.4053Z-2.6819
X-20.6519Y-26.6174Z-2.7007
X-20.4398Y-26.8295Z-2.714
X-20.2276Y-27.0417Z-2.721
X-20.0155Y-27.2538Z-2.7212
X-19.8034Y-27.4659Z-2.7141
X-19.5912Y-27.6781Z-2.7001
X-19.3791Y-27.8902Z-2.6797
X-19.167Y-28.1023Z-2.6538
X-18.9549Y-28.3145Z-2.6226
X-18.5306Y-28.7387Z-2.5548
X-18.1063Y-29.163Z-2.4848
X-17.8942Y-29.3751Z-2.4523
X-17.6821Y-29.5873Z-2.422
X-17.4699Y-29.7994Z-2.3943
X-17.2578Y-30.0115Z-2.37
X-17.0457Y-30.2237Z-2.3496
X-16.8335Y-30.4358Z-2.3302
X-16.4093Y-30.8601Z-2.2962
X-16.2369Y-31.0324Z-2.2839
X-16.0971Y-31.0309Z-2.2727
X-16.3386Y-30.7894Z-2.2887
X-16.7629Y-30.3652Z-2.3215
X-16.975Y-30.153Z-2.3398
X-17.1872Y-29.9409Z-2.3602
X-17.3993Y-29.7288Z-2.3844
X-17.6114Y-29.5166Z-2.4117
X-17.8236Y-29.3045Z-2.4416
X-18.0357Y-29.0924Z-2.4739
X-18.46Y-28.6681Z-2.5422
X-18.8842Y-28.2438Z-2.6089
X-19.0964Y-28.0317Z-2.639
X-19.3085Y-27.8196Z-2.6643
X-19.5206Y-27.6074Z-2.6844
X-19.7328Y-27.3953Z-2.6985
X-19.9449Y-27.1832Z-2.706
X-20.157Y-26.971Z-2.7065
X-20.3691Y-26.7589Z-2.7005
X-20.5813Y-26.5468Z-2.6883
X-20.7934Y-26.3347Z-2.6705
X-21.0055Y-26.1225Z-2.6478
X-21.2177Y-25.9104Z-2.6211
X-21.4298Y-25.6983Z-2.5899
X-21.8541Y-25.274Z-2.5198
X-22.2783Y-24.8497Z-2.4413
X-22.7026Y-24.4255Z-2.3564
X-23.1269Y-24.0012Z-2.2695
X-23.9754Y-23.1527Z-2.0926
X-24.3997Y-22.7284Z-2.0059
X-24.8239Y-22.3041Z-1.9224
X-25.2482Y-21.8799Z-1.8447
X-25.4603Y-21.6677Z-1.8088
X-25.6724Y-21.4556Z-1.7751
X-25.8846Y-21.2435Z-1.7442
X-26.0967Y-21.0314Z-1.7169
X-26.3088Y-20.8192Z-1.6929
X-26.521Y-20.6071Z-1.6736
X-26.627Y-20.501Z-1.6653
X-26.7331Y-20.395Z-1.659
X-26.9452Y-20.1828Z-1.6494
X-27.1574Y-19.9707Z-1.6457
X-27.3695Y-19.7586Z-1.648
X-27.5816Y-19.5464Z-1.6568
X-27.6877Y-19.4404Z-1.6632
X-27.7938Y-19.3343Z-1.6716
X-28.0059Y-19.1222Z-1.6926
X-28.218Y-18.91Z-1.7194
X-28.4302Y-18.6979Z-1.7507
X-28.6423Y-18.4858Z-1.7865
X-29.0666Y-18.0615Z-1.8629
X-29.4908Y-17.6372Z-1.9371
X-29.703Y-17.4251Z-1.9704
X-29.9151Y-17.213Z-1.9998
X-30.1272Y-17.0008Z-2.0254
X-30.3394Y-16.7887Z-2.049
X-30.5515Y-16.5766Z-2.0708
X-30.7636Y-16.3644Z-2.0905
X-30.9652Y-16.1628Z-2.1072
X-30.9668Y-16.02Z-2.1204
X-30.693Y-16.2938Z-2.0992
X-30.2687Y-16.7181Z-2.0595
X-30.0566Y-16.9302Z-2.0368
X-29.8445Y-17.1423Z-2.0116
X-29.6323Y-17.3545Z-1.9825
X-29.4202Y-17.5666Z-1.9496
X-28.9959Y-17.9909Z-1.8766
X-28.5717Y-18.4151Z-1.8019
X-28.3595Y-18.6273Z-1.7666
X-28.1474Y-18.8394Z-1.736
X-27.9353Y-19.0515Z-1.7094
X-27.7231Y-19.2637Z-1.6885
X-27.511Y-19.4758Z-1.6735
X-27.2989Y-19.6879Z-1.6644
X-27.0867Y-19.9001Z-1.6615
X-26.8746Y-20.1122Z-1.6646
X-26.6625Y-20.3243Z-1.6737
X-26.5564Y-20.4304Z-1.6794
X-26.4503Y-20.5365Z-1.6871
X-26.2382Y-20.7486Z-1.7057
X-26.0261Y-20.9607Z-1.7283
X-25.8139Y-21.1729Z-1.7549
X-25.6018Y-21.385Z-1.7844
X-25.3897Y-21.5971Z-1.8172
X-25.1776Y-21.8092Z-1.852
X-24.7533Y-22.2335Z-1.9279
X-24.329Y-22.6578Z-2.0097
X-23.9048Y-23.082Z-2.0949
X-23.0562Y-23.9306Z-2.2686
X-22.632Y-24.3548Z-2.3543
X-22.2077Y-24.7791Z-2.4367
X-21.7834Y-25.2034Z-2.5136
X-21.5713Y-25.4155Z-2.5489
X-21.3592Y-25.6276Z-2.5819
X-21.147Y-25.8398Z-2.6118
X-20.9349Y-26.0519Z-2.6376
X-20.7228Y-26.264Z-2.6592
X-20.5106Y-26.4762Z-2.6759
X-20.2985Y-26.6883Z-2.6871
X-20.0864Y-26.9004Z-2.6924
X-19.8743Y-27.1126Z-2.6916
X-19.6621Y-27.3247Z-2.684
X-19.45Y-27.5368Z-2.6699
X-19.2379Y-27.7489Z-2.65
X-19.0257Y-27.9611Z-2.6251
X-18.8136Y-28.1732Z-2.5958
X-18.3893Y-28.5975Z-2.5304
